NUDTHumanoid/mjlab/datasets/csv/body_stretch_3_002__A052.csv
Frame,root_translateX,root_translateY,root_translateZ,root_rotateX,root_rotateY,root_rotateZ,left_hip_pitch_joint_dof,left_hip_roll_joint_dof,left_hip_yaw_joint_dof,left_knee_joint_dof,left_ankle_pitch_joint_dof,left_ankle_roll_joint_dof,right_hip_pitch_joint_dof,right_hip_roll_joint_dof,right_hip_yaw_joint_dof,right_knee_joint_dof,right_ankle_pitch_joint_dof,right_ankle_roll_joint_dof,waist_yaw_joint_dof,waist_roll_joint_dof,waist_pitch_joint_dof,left_shoulder_pitch_joint_dof,left_shoulder_roll_joint_dof,left_shoulder_yaw_joint_dof,left_elbow_joint_dof,left_wrist_roll_joint_dof,left_wrist_pitch_joint_dof,left_wrist_yaw_joint_dof,right_shoulder_pitch_joint_dof,right_shoulder_roll_joint_dof,right_shoulder_yaw_joint_dof,right_elbow_joint_dof,right_wrist_roll_joint_dof,right_wrist_pitch_joint_dof,right_wrist_yaw_joint_dof
0,0.26316675543785095,1.9768623113632202,78.3883056640625,0.43599760134500853,-0.6244478903797451,-90.21870671740727,1.8219452,4.482757,15.353947,6.8552923,-8.233158,-5.288667,1.0262668,-5.6915812,-6.092906,8.31567,-9.303488,5.880786,1.6168773,-1.1529365,6.6571054,0.6412887,15.08048,-30.535755,57.403576,19.918034,-7.3451023,-5.729499,-6.248734,-15.7207155,45.72623,59.271397,-18.454962,-8.115197,4.6403522
1,0.2684192657470703,2.013556718826294,78.39803314208984,0.455099107652343,-0.5237853810316316,-90.09292805879598,1.6468235,4.4261384,15.241517,6.851197,-8.162293,-5.254857,0.93047076,-5.746017,-6.203639,8.282498,-9.2603245,5.8952956,1.4884356,-1.2291923,6.6775746,0.5100522,15.103646,-30.582827,57.429108,19.898476,-7.353062,-5.7278204,-6.293652,-15.726795,45.63432,59.228397,-18.391296,-8.123042,4.6441107
2,0.27589914202690125,2.0504250526428223,78.40514373779297,0.4773923788883867,-0.41807061274688834,-89.96256763423985,1.4645692,4.3683424,15.125433,6.8473215,-8.089222,-5.2214293,0.83059114,-5.8016653,-6.3187523,8.248567,-9.216998,5.9104,1.3989258,-1.3187886,6.6973615,0.36349064,15.158172,-30.688702,57.444912,19.855734,-7.358701,-5.7292576,-6.310028,-15.730036,45.47167,59.165417,-18.343771,-8.135173,4.652192
3,0.2895786464214325,2.0737600326538086,78.4087905883789,0.4964388502517354,-0.3228730388210788,-89.84135089281605,1.2968179,4.312554,15.017409,6.8432474,-8.0204,-5.1876054,0.73778486,-5.85526,-6.424709,8.220197,-9.176692,5.923964,1.3119547,-1.4097544,6.730269,0.2311092,15.224837,-30.778214,57.441326,19.819485,-7.364832,-5.7313814,-6.3378763,-15.727554,45.33601,59.111774,-18.299953,-8.144854,4.6560693
4,0.30389952659606934,2.0973892211914062,78.41221618652344,0.5141668608934996,-0.25420672430942215,-89.74304911249547,1.1653472,4.2614145,14.929298,6.840045,-7.963781,-5.152329,0.6607483,-5.9044776,-6.5071764,8.209119,-9.145647,5.933977,1.2418975,-1.4928675,6.7922235,0.10489024,15.283052,-30.83488,57.433548,19.808655,-7.372306,-5.728878,-6.382124,-15.7234125,45.252148,59.075157,-18.27195,-8.147854,4.651554
5,0.32525840401649475,2.126025438308716,78.4163818359375,0.5252333869421014,-0.22604199479358145,-89.67450705135789,1.0884025,4.216672,14.866497,6.838583,-7.926218,-5.115543,0.61692166,-5.947579,-6.559196,8.212522,-9.126321,5.938178,1.2026736,-1.5611944,6.892752,-0.023491941,15.321066,-30.860958,57.43422,19.836685,-7.384037,-5.7191315,-6.435949,-15.72211,45.22174,59.05659,-18.269299,-8.139083,4.6341352
6,0.34806033968925476,2.1589136123657227,78.4203109741211,0.5344823984942837,-0.22646282831206285,-89.62737421159106,1.0507973,4.1759276,14.821982,6.8378873,-7.902403,-5.0775857,0.5931483,-5.9869623,-6.5891514,8.233223,-9.11891,5.9382644,1.1946243,-1.6269419,7.0268145,-0.14288886,15.371128,-30.874622,57.41366,19.885546,-7.397979,-5.7081947,-6.49032,-15.7234125,45.21722,59.037487,-18.286572,-8.122819,4.6086674
7,0.37263816595077515,2.191753387451172,78.42438507080078,0.5408332152934925,-0.23278898144944896,-89.59240552645237,1.0208879,4.138547,14.788206,6.8374467,-7.879955,-5.038428,0.5693515,-6.0229445,-6.6075277,8.2559595,-9.107686,5.9380875,1.1956993,-1.6886694,7.1723785,-0.2677023,15.411029,-30.872112,57.40061,19.936825,-7.4092965,-5.692505,-6.5553207,-15.727813,45.24126,59.024094,-18.31407,-8.106882,4.5825577
8,0.39343535900115967,2.224735975265503,78.43133544921875,0.5474170883843835,-0.22219278399080314,-89.5603468452371,0.967868,4.103104,14.757892,6.8364897,-7.84721,-4.9980173,0.5243931,-6.0556726,-6.6254,8.270879,-9.08124,5.941169,1.1937217,-1.755013,7.315388,-0.39360902,15.454395,-30.85904,57.382328,19.96544,-7.4118032,-5.6743135,-6.632321,-15.7354555,45.280666,59.0043,-18.344995,-8.100029,4.5646105
9,0.41722068190574646,2.260964870452881,78.43880462646484,0.5509481853491833,-0.18839842158627834,-89.53408163058782,0.8835926,4.0687537,14.733863,6.8348,-7.800675,-4.9557014,0.45361423,-6.0851374,-6.6411695,8.265965,-9.02896,5.953556,1.1894588,-1.8285617,7.4557104,-0.51335466,15.513524,-30.832747,57.34117,19.960823,-7.400923,-5.656795,-6.7275186,-15.749423,45.348103,58.973946,-18.388554,-8.106086,4.558327
10,0.4389561712741852,2.313673496246338,78.44805145263672,0.5540618093503359,-0.14372346424618335,-89.5167059319755,0.78484523,4.036242,14.7186365,6.832697,-7.7470384,-4.911669,0.36597943,-6.1112747,-6.6505094,8.255613,-8.963291,5.9715242,1.1937907,-1.9025327,7.5970654,-0.64069366,15.568298,-30.79883,57.30255,19.938185,-7.3805413,-5.6357527,-6.8373938,-15.7670555,45.439503,58.945663,-18.44602,-8.120165,4.5584135
11,0.4648020565509796,2.36521577835083,78.45861053466797,0.554634848187136,-0.09307070980760318,-89.49949949677234,0.6769811,4.00678,14.70385,6.8300996,-7.688451,-4.867325,0.2685311,-6.1342845,-6.659922,8.245121,-8.89114,5.9846454,1.1956147,-1.9803097,7.7408457,-0.77368444,15.620915,-30.756317,57.271435,19.908033,-7.3587437,-5.6102343,-6.9481006,-15.786663,45.53056,58.908085,-18.494167,-8.137379,4.5617933
12,0.49368324875831604,2.4197916984558105,78.4679946899414,0.5530212654123484,-0.04166658843526878,-89.47353172645029,0.5647551,3.9822874,14.681117,6.8280077,-7.627615,-4.824155,0.16798477,-6.1535335,-6.676397,8.242234,-8.821543,5.982319,1.194589,-2.062418,7.8835244,-0.9230077,15.657266,-30.714163,57.273983,19.885508,-7.343168,-5.576357,-7.0459304,-15.799714,45.58761,58.863495,-18.510893,-8.153576,4.564468
13,0.5176787376403809,2.4755592346191406,78.47692108154297,0.5471649469503352,0.009721647898596598,-89.4346847772436,0.44911447,3.9617853,14.6470175,6.825923,-7.5637946,-4.7820926,0.06207239,-6.170895,-6.702077,8.257131,-8.76029,5.95776,1.1669626,-2.1595893,8.036849,-1.0418433,15.723028,-30.637806,57.243267,19.870821,-7.336005,-5.5403357,-7.1366143,-15.818053,45.637943,58.79001,-18.46903,-8.167935,4.570784
14,0.5397407412528992,2.531826972961426,78.4852523803711,0.538252191199383,0.06357707437880325,-89.388235715694,0.32785273,3.9445343,14.606441,6.8235292,-7.4961467,-4.740439,-0.04873102,-6.185705,-6.7335343,8.277821,-8.698969,5.9178567,1.1393085,-2.2646577,8.191141,-1.1711735,15.785413,-30.560543,57.231575,19.85416,-7.332766,-5.4961824,-7.2208877,-15.829454,45.667694,58.712147,-18.392372,-8.183774,4.5801644
15,0.5549734234809875,2.588759660720825,78.49517822265625,0.5259600508141548,0.12019142886415839,-89.33967990752885,0.20005742,3.9333332,14.563344,6.821684,-7.4262877,-4.70014,-0.16355127,-6.1948733,-6.768268,8.297339,-8.634178,5.8725495,1.1055481,-2.378402,8.348702,-1.2996349,15.855168,-30.480253,57.22094,19.84052,-7.332417,-5.4529147,-7.2977734,-15.835284,45.668003,58.61941,-18.31187,-8.198867,4.5852284
16,0.5651783347129822,2.6420445442199707,78.50601196289062,0.5113126581008813,0.17963823456225156,-89.29430503950414,0.06615921,3.9296527,14.521871,6.8195543,-7.3553576,-4.6618905,-0.28016403,-6.1959414,-6.803884,8.305644,-8.560594,5.831994,1.0717146,-2.4966023,8.507287,-1.4407371,15.921749,-30.413614,57.226357,19.831394,-7.3337793,-5.4150977,-7.360962,-15.835137,45.619267,58.506214,-18.258057,-8.21141,4.578464
17,0.5780826807022095,2.700385093688965,78.51466369628906,0.4927434820510011,0.24011136562564192,-89.25089045923009,-0.071583495,3.9317389,14.481254,6.817664,-7.287405,-4.6244073,-0.39310578,-6.190593,-6.843121,8.298181,-8.47841,5.801939,1.0353998,-2.6249657,8.671927,-1.5795519,16.002264,-30.356155,57.226124,19.825554,-7.338754,-5.38606,-7.413839,-15.830395,45.532253,58.373062,-18.229975,-8.216315,4.553707
18,0.5958166122436523,2.7588706016540527,78.52404022216797,0.4722592411202522,0.3022472872815265,-89.20745945735341,-0.21419689,3.939403,14.439868,6.8156667,-7.2200775,-4.587751,-0.50533396,-6.1795273,-6.886041,8.280609,-8.389278,5.776107,0.9961312,-2.762614,8.841187,-1.7187566,16.093302,-30.30567,57.225147,19.820652,-7.3471785,-5.362217,-7.4572625,-15.820932,45.41046,58.222218,-18.214684,-8.21608,4.5163283
19,0.6014403700828552,2.838329315185547,78.53601837158203,0.44688647544613236,0.36970374778286863,-89.16844508730216,-0.36522874,3.9567702,14.400529,6.81376,-7.147818,-4.5549045,-0.6271219,-6.158113,-6.926656,8.260907,-8.293188,5.745734,0.95762694,-2.9075327,9.012555,-1.8636497,16.19305,-30.265974,57.22479,19.820564,-7.354843,-5.3450828,-7.485249,-15.807197,45.228973,58.03972,-18.221792,-8.220751,4.477208
20,0.6014118194580078,2.9192090034484863,78.54702758789062,0.41317047964524356,0.4460373591808686,-89.13803779556552,-0.52893025,3.9886706,14.365833,6.81105,-7.063339,-4.528959,-0.7655679,-6.120891,-6.959386,8.23899,-8.184981,5.702205,0.92506564,-3.058522,9.184166,-2.0194862,16.304657,-30.245272,57.223305,19.82493,-7.357561,-5.336865,-7.4912486,-15.790126,44.959637,57.810036,-18.2623,-8.240662,4.4472356
21,0.598071813583374,2.999100923538208,78.56033325195312,0.3711336022097261,0.5338745639381766,-89.11421972620809,-0.70798886,4.0344834,14.3345,6.807002,-6.9638567,-4.511676,-0.9211136,-6.0681906,-6.986186,8.210461,-8.061923,5.6436567,0.8995026,-3.2137365,9.354467,-2.1892595,16.429121,-30.255041,57.221085,19.831875,-7.3498073,-5.3452253,-7.470816,-15.770457,44.58525,57.53007,-18.353918,-8.282442,4.4330115
22,0.5886404514312744,3.0846550464630127,78.57408905029297,0.3248101334921974,0.6307123757003782,-89.09586751275988,-0.90065634,4.0917006,14.30587,6.8037333,-6.8540363,-4.501014,-1.093728,-6.0033937,-7.00852,8.18432,-7.931479,5.5745583,0.8806137,-3.3756309,9.525608,-2.3718383,16.566902,-30.292604,57.21888,19.838959,-7.335264,-5.366639,-7.428897,-15.749186,44.122906,57.206253,-18.483871,-8.339412,4.4276385
23,0.572049081325531,3.1739044189453125,78.58879852294922,0.2736020989739912,0.7326943087252692,-89.08852678751808,-1.1010225,4.161332,14.283763,6.8005605,-6.737791,-4.49425,-1.277865,-5.9248805,-7.021156,8.154011,-7.7889285,5.4951677,0.8700937,-3.5491912,9.701921,-2.5568736,16.719927,-30.334696,57.20626,19.85482,-7.3234196,-5.3881507,-7.36547,-15.726638,43.588997,56.830597,-18.627611,-8.401494,4.422497
24,0.5572373270988464,3.2670087814331055,78.60364532470703,0.21902006917506497,0.836041487119919,-89.09805330677452,-1.3033918,4.2450633,14.271868,6.796957,-6.6191983,-4.488462,-1.4741127,-5.8309493,-7.0183206,8.127546,-7.6381216,5.405708,0.86844605,-3.7390678,9.88757,-2.7359962,16.891975,-30.360397,57.173878,19.884274,-7.3236113,-5.3968086,-7.283248,-15.702939,43.00339,56.397606,-18.75765,-8.45846,4.4087257
25,0.5287287831306458,3.3750479221343994,78.62486267089844,0.1569556153931701,0.9460280724965949,-89.12002657914452,-1.5175632,4.3469152,14.264198,6.79371,-6.4969454,-4.4832926,-1.6858853,-5.7181187,-7.003413,8.098802,-7.4719524,5.301628,0.86910766,-3.9451632,10.0840845,-2.9067116,17.08611,-30.362217,57.114666,19.947697,-7.33725,-5.3825703,-7.178717,-15.676614,42.351566,55.889442,-18.890217,-8.496879,4.3748393
26,0.4864954352378845,3.4800808429718018,78.64122772216797,0.08812816815705513,1.0625805080921686,-89.15345797688089,-1.7433335,4.465336,14.261011,6.7914114,-6.370166,-4.4795876,-1.9124076,-5.588538,-6.9777155,8.068718,-7.292721,5.183929,0.872671,-4.165782,10.289652,-3.0698104,17.303415,-30.349937,57.029957,20.036596,-7.359668,-5.3553867,-7.0527525,-15.646643,41.629524,55.31419,-19.033072,-8.525644,4.3286285
27,0.4489278495311737,3.578672170639038,78.65792083740234,0.017395152980345475,1.1736742144064345,-89.2083500168289,-1.9598519,4.596207,14.274669,6.788773,-6.2425294,-4.476336,-2.1415868,-5.4456725,-6.9311185,8.041029,-7.10966,5.059266,0.89016885,-4.40103,10.5047,-3.221309,17.544825,-30.327602,56.922092,20.111977,-7.391401,-5.3322277,-6.919573,-15.615168,40.87964,54.707268,-19.138176,-8.567992,4.2901254
28,0.403578519821167,3.683586359024048,78.67232513427734,-0.04989288937455774,1.2673661481079377,-89.29490825247336,-2.1470418,4.7343793,14.317487,6.7871304,-6.1195865,-4.4725213,-2.361475,-5.294028,-6.853898,8.020453,-6.9326577,4.9350686,0.93057066,-4.651573,10.729009,-3.3566072,17.811604,-30.297392,56.79379,20.134895,-7.433253,-5.3305635,-6.794667,-15.587365,40.146484,54.10561,-19.15836,-8.647069,4.279291
29,0.3529600501060486,3.7846531867980957,78.68948364257812,-0.11405538793110614,1.3326574051223545,-89.41585043778684,-2.292363,4.8806176,14.39189,6.7859793,-5.999724,-4.46643,-2.5647075,-5.132411,-6.74143,8.014765,-6.7665577,4.803459,0.9975069,-4.9172287,10.977215,-3.4784403,18.105673,-30.271086,56.64228,20.067724,-7.490447,-5.3638735,-6.6680975,-15.565766,39.42653,53.48162,-19.044699,-8.775192,4.3158445
30,0.285468190908432,3.900801658630371,78.70356750488281,-0.17971370520026084,1.3784832670540623,-89.56565676932989,-2.4097676,5.03938,14.49106,6.786327,-5.881612,-4.458772,-2.7587965,-4.9576015,-6.5997314,8.019784,-6.6058426,4.6635637,1.0858078,-5.1947393,11.245842,-3.587438,18.427738,-30.244507,56.46472,19.938847,-7.56094,-5.4206862,-6.5367227,-15.551311,38.70336,52.824814,-18.830994,-8.937432,4.38541
31,0.22023171186447144,4.007742881774902,78.71810913085938,-0.24380762962871172,1.4227469731694489,-89.74256622298674,-2.5167408,5.207194,14.614891,6.786143,-5.768415,-4.4527297,-2.9529366,-4.7742896,-6.434306,8.017331,-6.4408355,4.5339427,1.190239,-5.4836607,11.508441,-3.669157,18.775652,-30.186665,56.2593,19.81641,-7.634434,-5.480408,-6.417952,-15.547179,37.995914,52.19089,-18.603558,-9.116793,4.4565525
32,0.15972615778446198,4.1064863204956055,78.73471069335938,-0.30707508548982915,1.4829521129634582,-89.94487794185488,-2.6320543,5.384363,14.762181,6.786388,-5.6644654,-4.4519024,-3.1527927,-4.5826025,-6.25209,7.9824443,-6.2584343,4.433355,1.3029842,-5.779082,11.738635,-3.7108607,19.146091,-30.066381,56.02647,19.766771,-7.701118,-5.522006,-6.329584,-15.556747,37.32756,51.634335,-18.445887,-9.296349,4.497181
33,0.07930301874876022,4.216201305389404,78.74060821533203,-0.3613737655730287,1.5675577050057843,-90.17900787841835,-2.7753253,5.566465,14.939542,6.8101363,-5.583256,-4.455058,-3.561891,-4.4069667,-6.027252,8.322648,-6.268521,4.3474636,1.4281051,-6.0903754,11.930211,-3.7077792,19.536495,-29.869125,55.760376,19.816668,-7.759984,-5.5427394,-6.275425,-15.581305,36.71034,51.16195,-18.36108,-9.482418,4.491942
34,0.0014179478166624904,4.316257476806641,78.74372863769531,-0.40839149029665034,1.6645403287834777,-90.44306804462887,-2.9543629,5.7606707,15.142257,6.9020257,-5.546179,-4.461564,-4.0906653,-4.235595,-5.768569,8.875758,-6.3872147,4.272906,1.564671,-6.416064,12.098339,-3.6653857,19.94663,-29.609074,55.46334,19.93007,-7.8158107,-5.5523825,-6.2470136,-15.621335,36.133675,50.747143,-18.309372,-9.680568,4.459842
35,-0.07994330674409866,4.403258323669434,78.74739074707031,-0.4529469120102946,1.7647577338620384,-90.7244035040709,-3.182443,5.974512,15.355634,7.1137576,-5.5793505,-4.473894,-4.594711,-4.061025,-5.506662,9.369056,-6.479633,4.2484202,1.6996386,-6.746872,12.244486,-3.5881026,20.377287,-29.301428,55.149494,20.075842,-7.8679976,-5.5492053,-6.240584,-15.6794,35.585217,50.392994,-18.312563,-9.872667,4.420011
36,-0.1614276021718979,4.480719566345215,78.74885559082031,-0.49107690376000723,1.8598026074693337,-91.0112915571909,-3.3650682,6.1770425,15.579574,7.259893,-5.5828147,-4.4930105,-5.025097,-3.89621,-5.2612805,9.73122,-6.5206103,4.314134,1.8212132,-7.0818486,12.369727,-3.4809544,20.830172,-28.962671,54.833004,20.221827,-7.9159694,-5.531501,-6.250518,-15.758921,35.051903,50.09943,-18.391304,-10.040406,4.391633
37,-0.25186318159103394,4.558669090270996,78.74861145019531,-0.5114329326842392,1.947946006973202,-91.30803288661852,-3.487605,6.3525257,15.823549,7.318111,-5.546331,-4.5170755,-5.3668475,-3.7439988,-5.017248,9.937821,-6.49665,4.5389495,1.9280688,-7.435859,12.472008,-3.3368995,21.307043,-28.598684,54.51279,20.360289,-7.9538198,-5.490086,-6.2778807,-15.861242,34.54724,49.868793,-18.561293,-10.185024,4.3765235
38,-0.3354376256465912,4.632840156555176,78.74859619140625,-0.5197773965689382,2.0334756168781105,-91.61857238736923,-3.561817,6.510276,16.08853,7.3017826,-5.4772286,-4.5464716,-5.6478195,-3.598389,-4.770672,10.031195,-6.4250464,4.8823147,2.0263064,-7.8042045,12.552821,-3.1545322,21.807932,-28.200598,54.180645,20.506128,-7.9837294,-5.429217,-6.321604,-15.986477,34.072067,49.695694,-18.80744,-10.314271,4.3654566
39,-0.42772650718688965,4.7001824378967285,78.75733947753906,-0.5367304793193873,2.1170810211222215,-91.93029099311612,-3.6093416,6.6748657,16.354254,7.244948,-5.3895946,-4.5859203,-5.899808,-3.462346,-4.55594,10.072634,-6.339103,5.220415,2.116395,-8.1588545,12.616336,-2.9424958,22.330809,-27.758327,53.837017,20.667456,-8.016996,-5.36729,-6.373068,-16.138802,33.592632,49.570698,-19.106892,-10.419938,4.3616853
40,-0.5333216786384583,4.754566192626953,78.76445770263672,-0.5817202809363179,2.1996087021163184,-92.23083384551231,-3.6559086,6.871555,16.600142,7.1915092,-5.3041716,-4.6400604,-6.155771,-3.339935,-4.4068203,10.123203,-6.271396,5.429725,2.201174,-8.471364,12.667274,-2.7147763,22.872297,-27.26686,53.486687,20.849463,-8.065096,-5.3224335,-6.420338,-16.325184,33.07409,49.479218,-19.433727,-10.4938,4.3692126
41,-0.6216413378715515,4.803885459899902,78.78549194335938,-0.664424532922677,2.278874735805803,-92.52675268595303,-3.6942785,7.1120973,16.828363,7.133514,-5.216099,-4.7137547,-6.4327817,-3.2148428,-4.3083014,10.21594,-6.2327204,5.4468613,2.2916093,-8.72885,12.709298,-2.471579,23.42879,-26.727283,53.125134,21.069717,-8.137902,-5.304909,-6.450294,-16.549902,32.494953,49.406418,-19.822372,-10.523914,4.3963695
42,-0.7166438698768616,4.85479736328125,78.80626678466797,-0.7715626453849274,2.35538023914655,-92.82184335832027,-3.715351,7.3793917,17.047934,7.053229,-5.1174145,-4.803402,-6.7078767,-3.0922282,-4.2497487,10.304402,-6.2005863,5.3484035,2.3860526,-8.94784,12.738588,-2.2107937,23.9989,-26.14628,52.7577,21.318464,-8.22723,-5.302395,-6.466285,-16.815643,31.87548,49.357006,-20.270512,-10.518136,4.440156
43,-0.8243076801300049,4.906282424926758,78.82772064208984,-0.8879886990333422,2.4339420778833274,-93.09928652227498,-3.731537,7.6527166,17.249577,6.955278,-5.009295,-4.900693,-6.9567437,-3.0077553,-4.271262,10.337273,-6.162203,5.2204638,2.4682775,-9.143552,12.749806,-1.9329948,24.58145,-25.518377,52.39403,21.56842,-8.317392,-5.299766,-6.4690733,-17.125267,31.236168,49.332542,-20.705467,-10.49748,4.4880667
44,-0.9327178001403809,4.950196266174316,78.85440826416016,-0.999540952171079,2.5196783683044233,-93.34248626870821,-3.753709,7.9118714,17.424078,6.8422804,-4.8924575,-4.997182,-7.15436,-2.9965467,-4.4127226,10.262185,-6.1041784,5.149027,2.5212624,-9.331351,12.737556,-1.6374195,25.175781,-24.836542,52.043186,21.792458,-8.392791,-5.2823334,-6.463472,-17.483221,30.600437,49.338654,-21.052654,-10.48273,4.5270624
45,-1.039517879486084,4.98661470413208,78.87283325195312,-1.1028489207626642,2.613552753142934,-93.5441531078077,-3.81355,8.160814,17.561745,6.781057,-4.8022633,-5.0898356,-7.27895,-3.0724792,-4.7131963,10.038735,-6.025877,5.1518617,2.5316513,-9.515588,12.696184,-1.3147538,25.780437,-24.096191,51.705677,21.985994,-8.446606,-5.2394013,-6.4523125,-17.892302,29.987131,49.380974,-21.290186,-10.473275,4.5535016
46,-1.1407177448272705,5.017467975616455,78.8947982788086,-1.2085715754138664,2.713712888620788,-93.71383577371135,-3.9107788,8.415928,17.666182,6.779664,-4.7433715,-5.1839056,-7.3512683,-3.2121742,-5.1432595,9.708679,-5.9359207,5.185283,2.5093727,-9.684475,12.629203,-0.96299005,26.393835,-23.29733,51.37544,22.164062,-8.488099,-5.181717,-6.4283233,-18.352955,29.379845,49.451042,-21.458914,-10.459668,4.574978
47,-1.250964641571045,5.04613733291626,78.91162109375,-1.3150208576208362,2.819510871121739,-93.86019526093048,-4.017224,8.669573,17.749367,6.7784076,-4.6841726,-5.2825003,-7.4004445,-3.4011636,-5.63718,9.324999,-5.8247623,5.2431846,2.474667,-9.836901,12.546797,-0.5998566,27.016256,-22.446293,51.05643,22.323044,-8.525971,-5.1263223,-6.382947,-18.866194,28.750652,49.533024,-21.57291,-10.449989,4.5950313
48,-1.3604670763015747,5.068076133728027,78.92681121826172,-1.422216021897073,2.9304284200729516,-93.99192716327674,-4.1348696,8.925814,17.818644,6.7815413,-4.626461,-5.3890085,-7.4571295,-3.6243923,-6.129326,8.94299,-5.684573,5.3188953,2.4482982,-9.969239,12.460212,-0.2508386,27.649958,-21.55571,50.75792,22.453594,-8.568883,-5.0902667,-6.305046,-19.432705,28.069735,49.60751,-21.646334,-10.452195,4.6176305
49,-1.4847280979156494,5.0924835205078125,78.94212341308594,-1.5302458948992572,3.0492830959621724,-94.10529900991192,-4.274012,9.186612,17.87037,6.8009453,-4.5761547,-5.506699,-7.5215335,-3.885014,-6.631236,8.5539665,-5.499771,5.418534,2.4343436,-10.081311,12.367828,0.08921684,28.295294,-20.623827,50.47625,22.551838,-8.623743,-5.081765,-6.178123,-20.053038,27.311766,49.65983,-21.668854,-10.472869,4.6455135
50,-1.6051344871520996,5.1158928871154785,78.9535140991211,-1.6388376485774514,3.175498415266606,-94.19786134613504,-4.427916,9.449239,17.902687,6.826437,-4.5287004,-5.6328554,-7.57914,-4.1886735,-7.16803,8.136575,-5.2789283,5.542955,2.4232397,-10.174404,12.26687,0.4048469,28.953634,-19.665392,50.230465,22.603636,-8.684449,-5.0900664,-6.008825,-20.72808,26.495798,49.69996,-21.6354,-10.506292,4.6767616
51,-1.7229441404342651,5.1308979988098145,78.96444702148438,-1.7488844517884365,3.3034752157619964,-94.27988817674094,-4.585451,9.7154,17.923695,6.8554063,-4.4830728,-5.7624297,-7.640624,-4.525104,-7.6940556,7.7296863,-5.05154,5.677288,2.4245737,-10.248776,12.163175,0.73076636,29.621775,-18.653282,49.9831,22.653664,-8.74062,-5.1069756,-5.804034,-21.456665,25.643713,49.73866,-21.576374,-10.542646,4.7093973
52,-1.8518248796463013,5.147079944610596,78.97852325439453,-1.8611647946892156,3.4276739532995633,-94.36155829731122,-4.7421355,9.988594,17.940456,6.899024,-4.4454155,-5.8902955,-7.7214518,-4.8847203,-8.163227,7.379937,-4.8508263,5.806591,2.4383507,-10.303706,12.063517,1.049178,30.299116,-17.593296,49.745266,22.708351,-8.781566,-5.1221347,-5.581874,-22.237041,24.787434,49.792633,-21.521812,-10.5717,4.740186
53,-1.983750820159912,5.163139820098877,78.98925018310547,-1.973918175469097,3.549986252057588,-94.44456914524008,-4.8971233,10.265164,17.956331,6.9531984,-4.4137692,-6.013636,-7.825465,-5.2696404,-8.56352,7.0862455,-4.6797566,5.9360533,2.4706793,-10.342978,11.962215,1.3913989,30.979553,-16.44927,49.48952,22.806162,-8.80019,-5.145406,-5.340307,-23.069805,23.927488,49.8688,-21.471857,-10.59192,4.7700415
54,-2.114751100540161,5.171625137329102,78.9977035522461,-2.087517517270765,3.6723425429653003,-94.52380578306852,-5.0539126,10.545296,17.966923,7.0160427,-4.3869686,-6.135711,-7.946565,-5.683793,-8.918554,6.831372,-4.5237317,6.07039,2.5141222,-10.36419,11.857081,1.743289,31.661488,-15.234543,49.23593,22.922739,-8.803852,-5.17775,-5.0729566,-23.953682,23.053339,49.95995,-21.412006,-10.608152,4.799879
55,-2.2641706466674805,5.177696228027344,79.01260375976562,-2.207011661879755,3.789244108479465,-94.59947411914408,-5.209946,10.836692,17.96838,7.092505,-4.366574,-6.260629,-8.166384,-6.1331124,-9.2275505,6.8115234,-4.4834805,6.193965,2.5664518,-10.36091,11.753857,2.121026,32.34866,-13.972456,48.974243,23.034916,-8.803888,-5.1983075,-4.7825675,-24.88392,22.166906,50.067642,-21.351274,-10.620502,4.8267674
56,-2.4068403244018555,5.1665940284729,79.0245132446289,-2.336509544298991,3.8952296771765935,-94.67186032500501,-5.366314,11.148053,17.956165,7.1934834,-4.356592,-6.3925114,-8.366119,-6.591774,-9.510431,6.794315,-4.4348264,6.290882,2.6160953,-10.328307,11.664221,2.467833,33.051777,-12.722814,48.757946,23.082693,-8.8108225,-5.1858044,-4.4891124,-25.85337,21.282593,50.199257,-21.294096,-10.628817,4.846241
57,-2.5542356967926025,5.16987419128418,79.03675079345703,-2.4799941913393773,3.9874906430015367,-94.74468989142012,-5.515857,11.482766,17.933678,7.3098407,-4.352391,-6.534411,-8.547447,-7.0557103,-9.756073,6.783651,-4.3824043,6.3399715,2.671323,-10.266382,11.592236,2.798296,33.777073,-11.4866295,48.572784,23.04294,-8.828047,-5.1208644,-4.1920576,-26.857727,20.398987,50.360355,-21.234325,-10.635031,4.8534656
58,-2.708113670349121,5.180060863494873,79.04478454589844,-2.633951591435429,4.069595125557488,-94.81681566328007,-5.668397,11.838014,17.90021,7.454713,-4.361523,-6.6834455,-8.715875,-7.5292645,-9.964329,6.778028,-4.3264413,6.355086,2.7362745,-10.180535,11.530769,3.1322885,34.52458,-10.239239,48.400543,22.945948,-8.85001,-5.020727,-3.8866053,-27.894585,19.510206,50.553257,-21.170126,-10.638951,4.8513527
59,-2.872455596923828,5.178577423095703,79.05894470214844,-2.7932440873628663,4.145151684407324,-94.880788276252,-5.817373,12.202672,17.851973,7.6042466,-4.370223,-6.834838,-8.867906,-8.016214,-10.1612215,6.7744226,-4.2535653,6.3726516,2.8002286,-10.0745735,11.469541,3.4770224,35.293205,-8.972621,48.23864,22.842981,-8.873254,-4.9190617,-3.5674481,-28.957743,18.604984,50.77111,-21.128458,-10.637306,4.848366
60,-3.0429160594940186,5.1766510009765625,79.06490325927734,-2.9523840098435117,4.217872583135109,-94.92886150473619,-5.966434,12.568843,17.782907,7.7561574,-4.3770356,-6.9840117,-9.007207,-8.522458,-10.370894,6.7857857,-4.1579423,6.4285655,2.8528874,-9.952359,11.398018,3.831002,36.080383,-7.682314,48.093693,22.78555,-8.893907,-4.848879,-3.2254786,-30.037476,17.667898,51.005543,-21.139874,-10.626985,4.852634
61,-3.2173373699188232,5.169572830200195,79.07279205322266,-3.1080116156840734,4.284774471404358,-94.9608774177044,-6.1132474,12.932383,17.691496,7.913874,-4.384247,-7.1270423,-9.178221,-9.06469,-10.596838,6.9194655,-4.0922465,6.5434103,2.8942394,-9.81684,11.3151655,4.210286,36.883957,-6.3551054,47.955673,22.802769,-8.912662,-4.8146434,-2.859654,-31.12672,16.69786,51.27178,-21.250004,-10.60595,4.854169
62,-3.397817850112915,5.160109519958496,79.07830810546875,-3.2628766040313453,4.345146106548546,-94.98012054460214,-6.2565956,13.297093,17.581228,8.075985,-4.39137,-7.267185,-9.337879,-9.631315,-10.829664,7.078743,-4.0120277,6.6938868,2.9260938,-9.667723,11.224063,4.6042676,37.704304,-4.997305,47.836052,22.861658,-8.930545,-4.7994685,-2.4834197,-32.224037,15.706011,51.581047,-21.431337,-10.576207,4.851123
63,-3.591057777404785,5.152795791625977,79.08765411376953,-3.423171278656707,4.406018332914153,-94.98470484059348,-6.4073377,13.671154,17.451992,8.243751,-4.3971696,-7.410656,-9.493324,-10.208591,-11.057058,7.2611446,-3.9193997,6.852535,2.9466646,-9.500174,11.115971,5.0108013,38.543636,-3.6239202,47.73867,22.926735,-8.94473,-4.8041143,-2.0943072,-33.32809,14.685772,51.91301,-21.60912,-10.540899,4.864711
64,-3.7827465534210205,5.133926868438721,79.09437561035156,-3.5937238830575797,4.47453727703054,-94.97290708642903,-6.5718136,14.060278,17.30471,8.409222,-4.395517,-7.5635643,-9.653355,-10.783779,-11.266389,7.4667206,-3.818096,6.992006,2.9567242,-9.30996,10.984873,5.4185185,39.405674,-2.2553403,47.67195,22.961334,-8.952439,-4.8293705,-1.6986104,-34.43794,13.635147,52.254837,-21.70095,-10.503344,4.9161925
65,-3.9901111125946045,5.123806476593018,79.10274505615234,-3.778777019454625,4.557362776343168,-94.94436214942571,-6.759194,14.469554,17.1389,8.574737,-4.386361,-7.7263393,-9.830311,-11.354566,-11.448022,7.6987906,-3.6854973,7.1058183,2.9567716,-9.092687,10.821557,5.82955,40.293335,-0.88542,47.630806,22.964432,-8.947999,-4.889481,-1.2729577,-35.551903,12.528172,52.589775,-21.699804,-10.459559,5.025299
66,-4.196824073791504,5.10093355178833,79.11274719238281,-3.9744182926201423,4.649090529015788,-94.90014988945734,-6.9597673,14.89247,16.955042,8.734126,-4.3678102,-7.8959007,-10.016011,-11.927849,-11.61019,7.9561615,-3.5278459,7.20821,2.9467847,-8.852976,10.629504,6.246157,41.20741,0.4900684,47.6182,22.951933,-8.93446,-4.9793663,-0.7934959,-36.66866,11.358157,52.907925,-21.652233,-10.409566,5.1760716
67,-4.4168500900268555,5.0768351554870605,79.11882019042969,-4.173464015886441,4.7388373064491836,-94.84026345354584,-7.164941,15.323023,16.752138,8.896223,-4.347154,-8.073846,-10.188545,-12.504168,-11.767301,8.230437,-3.3903508,7.3033442,2.9387922,-8.597366,10.43459,6.653604,42.150043,1.8439504,47.640713,22.912045,-8.921891,-5.070236,-0.3848342,-37.791016,10.2096195,53.311817,-21.522316,-10.360884,5.335595
68,-4.649604797363281,5.057941913604736,79.12212371826172,-4.368682761575523,4.815190003699513,-94.76466672107033,-7.358334,15.752341,16.531185,9.055383,-4.324344,-8.261766,-10.326767,-13.085235,-11.934176,8.516172,-3.3200202,7.395637,2.915341,-8.334479,10.233764,7.0734696,43.117752,3.1701593,47.709377,22.833302,-8.920272,-5.1343393,0.048714973,-38.912342,9.056644,53.70909,-21.362661,-10.323893,5.471121
69,-4.890474796295166,5.0342817306518555,79.1234130859375,-4.559265908535512,4.873479187454748,-94.6697860885088,-7.5270348,16.176388,16.29088,9.1946,-4.290313,-8.460026,-10.421125,-13.677224,-12.123772,8.81444,-3.3454926,7.4868407,2.8707058,-8.064369,10.027149,7.5126176,44.114174,4.4632206,47.82949,22.690605,-8.935399,-5.1617584,0.5506859,-40.0341,7.8869863,54.065357,-21.163288,-10.304697,5.5680804
70,-5.131637096405029,5.00137996673584,79.11772918701172,-4.748908257725204,4.920147871180868,-94.55639957867743,-7.691072,16.603046,16.028755,9.342122,-4.259497,-8.668122,-10.481707,-14.277304,-12.327036,9.124139,-3.4346602,7.574675,2.819139,-7.7819996,9.821227,7.955686,45.14137,5.725066,47.993126,22.49654,-8.9608555,-5.1679435,1.0328525,-41.156586,6.724968,54.461952,-20.90214,-10.295737,5.6463175
71,-5.384422302246094,4.97095251083374,79.11207580566406,-4.933826689780621,4.960271963670677,-94.43133460257893,-7.8383236,17.025887,15.758161,9.465332,-4.216206,-8.886237,-10.522439,-14.877114,-12.523221,9.448217,-3.5497952,7.657707,2.7627802,-7.497215,9.60642,8.404643,46.194607,6.966468,48.1982,22.298878,-8.987094,-5.16133,1.5187485,-42.27671,5.5592194,54.871304,-20.620678,-10.288212,5.719463
72,-5.6481475830078125,4.931883335113525,79.10482025146484,-5.121197784431886,4.998465428424144,-94.30093565785168,-8.04703,17.474663,15.46171,9.719583,-4.243161,-9.116608,-10.551349,-15.456396,-12.696593,9.778878,-3.6479173,7.732898,2.708373,-7.2072167,9.377374,8.85411,47.266724,8.192833,48.441463,22.1462,-9.004351,-5.1494765,2.0120142,-43.39176,4.3842864,55.283478,-20.354256,-10.272986,5.801455
73,-5.9222092628479,4.889262676239014,79.09520721435547,-5.310929836482908,5.038188789467667,-94.16420827800978,-8.29557,17.941015,15.145466,10.049878,-4.3105364,-9.36007,-10.57214,-16.017296,-12.843328,10.116842,-3.733,7.798912,2.6539595,-6.9108987,9.130474,9.311041,48.357944,9.40071,48.717953,22.065313,-9.007599,-5.125103,2.520715,-44.504536,3.2020788,55.694008,-20.093773,-10.243674,5.8914943
74,-6.202760219573975,4.8464274406433105,79.07693481445312,-5.493762742724679,5.076120201641636,-94.01847228063204,-8.517546,18.396572,14.828586,10.325192,-4.3494296,-9.613943,-10.5827465,-16.574028,-12.969095,10.468704,-3.8246539,7.8584533,2.5967531,-6.6156416,8.871407,9.77663,49.470757,10.591038,49.028114,22.02718,-9.002529,-5.086144,3.0404453,-45.617466,2.0139122,56.107723,-19.827366,-10.2060795,5.9829545
75,-6.48800802230835,4.795577526092529,79.05717468261719,-5.665756512313459,5.106681658705857,-93.86838638037439,-8.711776,18.840675,14.514608,10.559621,-4.3705373,-9.8754835,-10.584797,-17.125557,-13.07121,10.84208,-3.9061599,7.9144974,2.5410395,-6.3266516,8.605786,10.2370405,50.59998,11.775963,49.378746,21.999216,-8.995092,-5.0472646,3.5631597,-46.72553,0.8156739,56.524338,-19.584589,-10.169221,6.0799575
76,-6.781980991363525,4.747100830078125,79.02842712402344,-5.822115765727234,5.124308676173685,-93.71862452908113,-8.873121,19.269922,14.20841,10.759684,-4.3808784,-10.141399,-10.580306,-17.668724,-13.147098,11.24398,-3.960263,7.9702444,2.490009,-6.050594,8.340475,10.682968,51.73758,12.97139,49.773006,21.950947,-8.990388,-5.0222554,4.0698237,-47.82127,-0.39344272,56.95165,-19.399004,-10.141654,6.185487
77,-7.086699485778809,4.6984782218933105,78.99433898925781,-5.968211895202436,5.1244142426555825,-93.56644922918866,-9.001572,19.69187,13.904474,10.93366,-4.3860397,-10.409552,-10.56219,-18.203293,-13.213363,11.68169,-4.0012617,8.014104,2.4369564,-5.783173,8.078167,11.127721,52.8806,14.192802,50.20852,21.888783,-8.991863,-5.013728,4.546136,-48.901287,-1.6252706,57.402397,-19.301315,-10.126305,6.3083506
78,-7.401021480560303,4.642609596252441,78.9654541015625,-6.103950165424412,5.110877683228177,-93.41026990596409,-9.105366,20.106497,13.60099,11.089745,-4.38691,-10.681857,-10.530198,-18.72957,-13.266475,12.1456175,-4.029731,8.048652,2.3802342,-5.5241785,7.817001,11.583511,54.030205,15.438938,50.676186,21.826923,-8.99523,-5.0138464,5.0026903,-49.967316,-2.873803,57.869007,-19.269316,-10.117882,6.4422383
79,-7.721266269683838,4.583186149597168,78.92530822753906,-6.215356050653498,5.090569541857895,-93.25651154429107,-9.174133,20.495596,13.315123,11.197912,-4.369858,-10.961442,-10.499426,-19.25129,-13.270899,12.625265,-4.0136995,8.098499,2.3295314,-5.2881007,7.5543056,12.038338,55.185623,16.699947,51.171406,21.747969,-8.994016,-5.0196924,5.463509,-51.023922,-4.111825,58.322395,-19.254337,-10.112253,6.5663896
80,-8.059911727905273,4.530416965484619,78.88320922851562,-6.2900311437855985,5.070592530615757,-93.11183632518654,-9.2123,20.84568,13.0587,11.257891,-4.3316016,-11.251411,-10.485584,-19.76955,-13.191404,13.109334,-3.9205058,8.18823,2.2931848,-5.0860534,7.2863064,12.4785795,56.345097,17.963614,51.690666,21.633867,-8.981725,-5.0280147,5.948739,-52.075947,-5.3085394,58.736763,-19.20623,-10.105308,6.6607094
81,-8.402643203735352,4.477885723114014,78.83285522460938,-6.324761657595441,5.050876289345677,-92.97855550103526,-9.2146,21.152395,12.836235,11.261369,-4.2684093,-11.55524,-10.488295,-20.292604,-13.038735,13.595743,-3.7521002,8.319438,2.2740815,-4.9193025,7.0143228,12.913685,57.512478,19.227478,52.2237,21.468952,-8.952276,-5.0522265,6.470489,-53.13336,-6.4442043,59.09961,-19.11295,-10.096603,6.7114325
82,-8.745118141174316,4.415564060211182,78.77484893798828,-6.326227181235479,5.02813614436146,-92.85269595217589,-9.1850605,21.425041,12.640114,11.219481,-4.185891,-11.870345,-10.501303,-20.815903,-12.824237,14.088223,-3.5213544,8.481033,2.2647917,-4.7797604,6.736625,13.34383,58.68842,20.494112,52.780975,21.26593,-8.910783,-5.089102,7.0068984,-54.198063,-7.5289164,59.433872,-18.99572,-10.089135,6.733759
83,-9.099445343017578,4.352183818817139,78.70438385009766,-6.297783719240683,5.005190888415937,-92.7322145260591,-9.134738,21.669336,12.466,11.148168,-4.0907435,-12.190159,-10.526931,-21.31675,-12.514451,14.574399,-3.2083316,8.678959,2.259622,-4.6658173,6.447618,13.745675,59.86588,21.761162,53.382057,21.050411,-8.866854,-5.1089363,7.52767,-55.261345,-8.582943,59.76304,-18.859814,-10.082844,6.749943
84,-9.464101791381836,4.294260025024414,78.63115692138672,-6.242001135478988,4.984751372187837,-92.61499281375121,-9.073514,21.890324,12.310273,11.06124,-3.9890962,-12.508427,-10.5718,-21.777449,-12.073324,15.051869,-2.7970438,8.92062,2.254051,-4.5775228,6.1435843,14.097969,61.035973,23.02901,54.041252,20.850273,-8.829517,-5.0811706,8.009161,-56.312054,-9.631143,60.103737,-18.712423,-10.076647,6.779759
85,-9.839393615722656,4.230083465576172,78.55101013183594,-6.15661810633283,4.965914726060226,-92.50029054919256,-8.998109,22.08604,12.174693,10.957,-3.8826969,-12.82449,-10.627119,-22.191502,-11.482926,15.504498,-2.310386,9.196799,2.248456,-4.518977,5.826134,14.40411,62.19744,24.31066,54.76496,20.687927,-8.806316,-4.9903083,8.455172,-57.345036,-10.689309,60.452526,-18.563646,-10.06898,6.825619
86,-10.223271369934082,4.156117916107178,78.47022247314453,-6.042298022631913,4.94767780004891,-92.38938698906423,-8.904639,22.256012,12.060543,10.829023,-3.7676995,-13.141607,-10.693611,-22.565792,-10.764085,15.940238,-1.748822,9.510749,2.246741,-4.4891806,5.5009737,14.679346,63.35269,25.609055,55.532917,20.546396,-8.78984,-4.853591,8.886555,-58.361935,-11.753394,60.79049,-18.411322,-10.059413,6.8756137
87,-10.606365203857422,4.087845802307129,78.3775634765625,-5.908976899825933,4.933721823372102,-92.28387433824085,-8.811201,22.41305,11.95893,10.699288,-3.6503189,-13.459832,-10.774423,-22.887062,-9.945651,16.356653,-1.053901,9.888226,2.2498405,-4.475534,5.168799,14.918244,64.49782,26.905638,56.32072,20.394352,-8.766386,-4.688819,9.300811,-59.36316,-12.813684,61.11454,-18.243826,-10.048879,6.9279094
88,-11.00658893585205,4.039945602416992,78.27996826171875,-5.766445981868112,4.927254025699804,-92.18517779581397,-8.727163,22.568222,11.864266,10.572607,-3.5269036,-13.779376,-10.862624,-23.138945,-9.059446,16.733635,-0.15773992,10.356506,2.258729,-4.46361,4.8296075,15.112996,65.62671,28.178894,57.104923,20.201227,-8.721965,-4.512389,9.692712,-60.348454,-13.859699,61.42451,-18.0512,-10.03838,6.980868
89,-11.409631729125977,3.9807915687561035,78.17604064941406,-5.616531748487202,4.932071493490075,-92.09481277110571,-8.6586275,22.723598,11.778278,10.453862,-3.4002926,-14.0951185,-10.988065,-23.30436,-8.043324,17.107075,0.9755071,10.894159,2.2748945,-4.450355,4.48163,15.275912,66.740746,29.435167,57.874012,19.961882,-8.656712,-4.3335977,10.065272,-61.32273,-14.895475,61.71624,-17.831146,-10.022889,7.0408993
90,-11.82150650024414,3.9202983379364014,78.07405853271484,-5.455773720374091,4.945514683754648,-92.011966451783,-8.597208,22.87482,11.703476,10.335455,-3.2693865,-14.409102,-11.13532,-23.389288,-6.8996696,17.465195,2.3034682,11.508967,2.2975576,-4.440081,4.124548,15.408219,67.841,30.68062,58.641125,19.691944,-8.576954,-4.1404634,10.4177685,-62.28731,-15.921315,61.993587,-17.588379,-10.003937,7.106977
91,-12.234574317932129,3.8585569858551025,77.96558380126953,-5.28648456940464,4.961704479431105,-91.93473493474507,-8.542997,23.026236,11.6306095,10.226664,-3.1380858,-14.732471,-11.249708,-23.409948,-5.748293,17.75096,3.7589123,12.267827,2.3245728,-4.430705,3.762021,15.487209,68.92077,31.895916,59.415108,19.39164,-8.477899,-3.9167056,10.743337,-63.23849,-16.925209,62.262383,-17.323446,-9.991104,7.1649733
92,-12.65247631072998,3.8003244400024414,77.8537826538086,-5.09768404513619,4.978306999350194,-91.85617588889623,-8.479901,23.153126,11.560475,10.092368,-2.986103,-15.000033,-11.285848,-23.40863,-4.702671,17.915468,5.2732882,13.234253,2.3488784,-4.4321666,3.3962908,15.485158,69.97118,33.058075,60.20237,19.061707,-8.354244,-3.6447022,11.035038,-64.1724,-17.89591,62.525925,-17.036919,-9.993774,7.2001257
93,-13.081015586853027,3.763746500015259,77.74528503417969,-4.860079834003036,5.00632126491882,-91.76496791085243,-8.398404,23.190157,11.50492,9.87484,-2.7799878,-15.000033,-11.288002,-23.413986,-3.7010534,18.000397,7.081358,14.536684,2.3610363,-4.4676976,3.0192647,15.3728285,70.987076,34.162647,61.00763,18.702215,-8.188674,-3.30198,11.290456,-65.09021,-18.83882,62.785423,-16.711222,-10.015303,7.2015753
94,-13.529898643493652,3.7112395763397217,77.63896942138672,-4.810697508655476,5.067340733088561,-91.74857043134685,-8.474304,23.503641,11.389242,9.876379,-2.6624553,-15.000033,-11.207944,-23.10434,-3.0447965,17.829807,9.238157,15.000033,2.4376147,-4.322856,2.5966063,15.165751,71.96736,35.215054,61.819267,18.313347,-7.9897943,-2.89876,11.511019,-65.992676,-19.756067,63.035763,-16.353195,-10.050211,7.177205
95,-13.99815845489502,3.665861129760742,77.52960968017578,-4.8200655215075185,5.137669463581766,-91.75589421809275,-8.601427,23.911726,11.251551,9.950663,-2.5739284,-15.000033,-11.032961,-22.713942,-2.7286978,17.50164,11.155349,15.000033,2.5296912,-4.122041,2.1627026,14.908896,72.91423,36.21798,62.615837,17.896055,-7.7909985,-2.4725235,11.6991,-66.87973,-20.636517,63.266064,-15.9985695,-10.094752,7.1446214
96,-14.4794282913208,3.627267360687256,77.39427185058594,-4.748482699367106,5.196273280970891,-91.73769089565809,-8.676102,24.221865,11.136947,9.954854,-2.4569798,-15.000033,-10.758724,-22.457853,-2.6400008,17.112083,12.244909,15.000033,2.58869,-3.9981146,1.7484379,14.646488,73.83187,37.17249,63.380306,17.450586,-7.625632,-2.061907,11.850688,-67.749695,-21.461664,63.470287,-15.682298,-10.145223,7.121346
97,-14.975789070129395,3.586244583129883,77.236328125,-4.564625781200387,5.2498302547205675,-91.69016378374417,-8.697655,24.401037,11.054765,9.882734,-2.3105276,-15.000033,-10.354121,-22.359812,-2.7878668,16.600206,12.234505,15.000033,2.603944,-3.9861593,1.3465775,14.398564,74.73089,38.101963,64.11758,16.961124,-7.504593,-1.6816783,11.944592,-68.602104,-22.223421,63.648117,-15.417376,-10.204102,7.1240277
98,-15.478245735168457,3.5324018001556396,77.09037780761719,-4.302637588419601,5.302134608296086,-91.62675008566748,-8.688689,24.493784,10.996248,9.765365,-2.1453052,-15.000033,-9.844991,-22.353077,-3.1204467,15.965779,11.474493,15.000033,2.5896845,-4.0544086,0.95090294,14.142054,75.61293,39.004112,64.83584,16.431341,-7.4114428,-1.3136547,11.974132,-69.43723,-22.918076,63.805355,-15.184024,-10.27203,7.138938
99,-15.983099937438965,3.4865167140960693,76.93263244628906,-4.000895240268529,5.342162775633103,-91.55354170224334,-8.650502,24.539068,10.95325,9.619662,-1.968946,-15.000033,-9.289882,-22.389286,-3.5650985,15.310319,10.355017,15.000033,2.559953,-4.1609674,0.57502204,13.845916,76.46358,39.830856,65.52404,15.893491,-7.3369966,-0.9446261,11.960315,-70.253105,-23.533934,63.94425,-14.966178,-10.342768,7.1376004
100,-16.480236053466797,3.4444313049316406,76.76273345947266,-3.6983958733853166,5.358326317391044,-91.47567993151597,-8.581388,24.575842,10.917176,9.457463,-1.7861321,-15.000033,-8.745677,-22.42924,-4.0605025,14.741354,9.257952,15.000033,2.5291126,-4.259388,0.23406924,13.474525,77.261314,40.52815,66.16658,15.380075,-7.2705736,-0.5586268,11.930353,-71.04934,-24.066769,64.06412,-14.74907,-10.410277,7.091435
101,-16.98046875,3.405911445617676,76.58766174316406,-3.390364408753604,5.34272213406417,-91.38514264872839,-8.470187,24.598566,10.886636,9.269457,-1.5934944,-15.000033,-8.194804,-22.478996,-4.6602073,14.27504,8.196414,15.000033,2.4945962,-4.3493333,-0.06278492,12.998659,77.99744,41.09441,66.755135,14.894648,-7.198304,-0.13088249,11.896482,-71.82821,-24.525045,64.153,-14.541023,-10.470244,6.98746
102,-17.473278045654297,3.371446132659912,76.41365051269531,-3.0631654014221534,5.303481627293217,-91.28346495163562,-8.321213,24.594202,10.86588,9.051374,-1.3881539,-15.000033,-7.6179194,-22.550812,-5.377023,13.859616,6.9922595,15.000033,2.452989,-4.4450784,-0.323396,12.437999,78.671684,41.55011,67.28881,14.421959,-7.1285267,0.32562724,11.849901,-72.5924,-24.91808,64.20839,-14.346001,-10.527401,6.8442545
103,-17.950210571289062,3.3382375240325928,76.2497329711914,-2.742486516328553,5.252144525451904,-91.18805280363254,-8.158137,24.590109,10.852274,8.829678,-1.178921,-15.000033,-7.053216,-22.613472,-6.1027675,13.476749,5.7492194,15.000033,2.4135396,-4.5196977,-0.5567351,11.831705,79.2706,41.875553,67.761536,13.96716,-7.082744,0.7698484,11.782088,-73.33961,-25.237858,64.24533,-14.139876,-10.589732,6.6818886
104,-18.41507339477539,3.3142738342285156,76.09554290771484,-2.4524734830385886,5.199752725577477,-91.11562703564691,-8.00227,24.611723,10.84421,8.62656,-0.97225636,-15.000033,-6.548977,-22.640825,-6.7239857,13.127165,4.559605,15.000033,2.3863811,-4.5464954,-0.77077496,11.217174,79.775795,42.04946,68.16427,13.536408,-7.080634,1.1629161,11.690021,-74.07024,-25.482094,64.27594,-13.899527,-10.664545,6.5190625
105,-18.859312057495117,3.290527582168579,75.94340515136719,-2.198944759892171,5.147060389037536,-91.05752780518924,-7.8598886,24.662632,10.827985,8.440107,-0.76304406,-15.000033,-6.104484,-22.63215,-7.242597,12.807016,3.4232385,15.000033,2.3658566,-4.5136228,-0.9623861,10.589005,80.16975,42.06394,68.47625,13.096769,-7.117767,1.5250298,11.58026,-74.78468,-25.652813,64.29301,-13.592307,-10.754017,6.360221
106,-19.28833770751953,3.2783091068267822,75.79981994628906,-1.9683297964392885,5.088204346755584,-91.00812199908206,-7.718294,24.729122,10.808242,8.259983,-0.5494946,-15.000033,-5.7018967,-22.60119,-7.7109194,12.525557,2.29177,15.000033,2.3484962,-4.432521,-1.1249936,9.946708,80.44669,41.949123,68.69154,12.657383,-7.184183,1.8682803,11.455993,-75.48637,-25.758497,64.28692,-13.239796,-10.854368,6.1966014
107,-19.692764282226562,3.2763466835021973,75.66728210449219,-1.7563445731515273,5.024535231359882,-90.98833608229234,-7.569449,24.810196,10.811558,8.09462,-0.3417623,-15.000033,-5.35947,-22.555382,-8.089791,12.29422,1.1918315,15.000033,2.345432,-4.308452,-1.2629977,9.340112,80.60557,41.74519,68.8258,12.287544,-7.2901945,2.139723,11.298459,-76.17629,-25.794445,64.27202,-12.897084,-10.964926,6.02906
108,-20.08507537841797,3.282461643218994,75.54635620117188,-1.5588693153916502,4.957796388343001,-91.01901250002342,-7.4101796,24.905743,10.861693,7.962029,-0.1563744,-15.000033,-5.099592,-22.498478,-8.3381,12.134377,0.14499402,15.000033,2.3661149,-4.148471,-1.3814993,8.824572,80.64867,41.497913,68.895134,12.056874,-7.445707,2.2856615,11.082205,-76.85574,-25.749817,64.26378,-12.620405,-11.084319,5.857049
109,-20.446378707885742,3.2839574813842773,75.43138885498047,-1.3801969925737099,4.882694968102252,-91.10699665415166,-7.241834,25.023457,10.962459,7.8819985,-0.003387736,-15.000033,-4.922928,-22.42679,-8.423838,12.04619,-0.8341132,15.000033,2.4122164,-3.9477062,-1.4767581,8.427336,80.56703,41.226067,68.889084,11.978987,-7.676824,2.2863708,10.792875,-77.52553,-25.607,64.26594,-12.409925,-11.225132,5.6666675
110,-20.79633331298828,3.296231746673584,75.32324981689453,-1.2208814305810483,4.800029175753973,-91.24002660107996,-7.0641994,25.160257,11.101181,7.840015,0.1272304,-15.000033,-4.822484,-22.343918,-8.376462,12.029476,-1.7640083,15.000033,2.4741495,-3.7019663,-1.5472115,8.1499195,80.35164,40.940754,68.7918,12.017933,-7.9693704,2.1716208,10.425002,-78.18567,-25.358433,64.27299,-12.240143,-11.383674,5.4627132
111,-21.124521255493164,3.3257100582122803,75.21864318847656,-1.0704543715965869,4.720348063666691,-91.41042598923033,-6.8747573,25.300322,11.277007,7.804833,0.25022146,-15.000033,-4.7916517,-22.256674,-8.252953,12.068692,-2.6607587,15.000033,2.545167,-3.4237545,-1.6008631,8.006765,80.01133,40.673454,68.61281,12.168631,-8.272727,1.9612385,9.971334,-78.83751,-25.01299,64.28277,-12.128772,-11.533195,5.2715454
112,-21.43017578125,3.352444887161255,75.12191772460938,-0.9195897777193228,4.654994999520712,-91.61116263362216,-6.667927,25.427996,11.4902725,7.7396984,0.38267666,-15.000033,-4.819851,-22.177008,-8.110494,12.141491,-3.5365071,15.000033,2.6178317,-3.128041,-1.6453544,8.005211,79.56529,40.449722,68.369354,12.425668,-8.538155,1.671009,9.424451,-79.479065,-24.579685,64.292625,-12.093273,-11.647117,5.1202846
113,-21.712749481201172,3.3849947452545166,75.03388977050781,-0.7585046560651999,4.607125532371967,-91.85045178215987,-6.43539,25.532583,11.753193,7.6300416,0.531752,-15.000033,-4.907072,-22.1143,-7.9709005,12.232398,-4.409461,15.000033,2.6988285,-2.8288612,-1.6829448,8.140122,79.01959,40.247425,68.05773,12.791805,-8.768534,1.2711323,8.769305,-80.10414,-24.052128,64.3047,-12.144662,-11.711711,5.0357203
114,-21.97300910949707,3.4226174354553223,74.94757080078125,-0.5952750839756326,4.570923808674812,-92.12887714755674,-6.1829877,25.625177,12.060903,7.49846,0.68658096,-15.000033,-5.0547132,-22.061674,-7.8039293,12.352581,-5.265785,15.000033,2.7916646,-2.5182106,-1.7112715,8.3917055,78.37464,40.043724,67.679794,13.2669525,-8.989093,0.7636817,8.015145,-80.708694,-23.42816,64.31676,-12.271337,-11.742655,4.995752
115,-22.228147506713867,3.4581236839294434,74.8596420288086,-0.4467315705689255,4.54378902639478,-92.42788365994488,-5.9270782,25.722172,12.388922,7.363741,0.83859575,-15.000033,-5.2554064,-21.999704,-7.5874166,12.517764,-6.068261,15.000033,2.882721,-2.180502,-1.7294027,8.74267,77.64707,39.860924,67.26617,13.842346,-9.185244,0.20877858,7.1916738,-81.29092,-22.724535,64.3189,-12.456366,-11.757584,4.9552145
116,-22.47237777709961,3.495131015777588,74.78598022460938,-0.3295138683132152,4.522538508146607,-92.72866781138762,-5.6889467,25.842194,12.710096,7.2531595,0.97476923,-15.000033,-5.502481,-21.907522,-7.2975187,12.747006,-6.782611,15.000033,2.955531,-1.8030019,-1.7335402,9.181231,76.861694,39.73066,66.85031,14.5096445,-9.342616,-0.33873382,6.3302145,-81.8464,-21.961338,64.29785,-12.681911,-11.774123,4.869841
117,-22.695772171020508,3.5405993461608887,74.72472381591797,-0.24325604332223705,4.501743471730197,-93.05099071002566,-5.448026,25.989824,13.050141,7.165234,1.0933466,-15.000033,-5.801854,-21.776407,-6.8778143,13.040482,-7.3905373,15.000033,3.026038,-1.3938705,-1.7112073,9.716642,76.03517,39.646454,66.43459,15.34334,-9.460388,-0.9122807,5.451106,-82.36906,-21.144255,64.248,-13.014289,-11.799682,4.724504
118,-22.909311294555664,3.5791103839874268,74.66638946533203,-0.18096106386963193,4.484214106498262,-93.39680773718334,-5.206637,26.15708,13.409561,7.097652,1.1956378,-15.000033,-6.153583,-21.614113,-6.3569283,13.392789,-7.916542,15.000033,3.0969296,-0.96415544,-1.6667724,10.32442,75.17346,39.571777,66.0191,16.3221,-9.552182,-1.5305021,4.546544,-82.85185,-20.276337,64.170265,-13.440241,-11.822605,4.5426846
119,-23.09080696105957,3.603196144104004,74.62100982666016,-0.14934968442033605,4.479031952806818,-93.72064978292472,-5.00124,26.340567,13.735137,7.0402555,1.2952368,-15.000033,-6.536389,-21.431236,-5.8389935,13.801603,-8.381852,15.000033,3.1319358,-0.50458735,-1.6211158,10.941971,74.28615,39.492863,65.63699,17.292824,-9.620229,-2.1177335,3.6093142,-83.28574,-19.375868,64.06162,-13.822488,-11.832428,4.338221
120,-23.244905471801758,3.6418144702911377,74.58533477783203,-0.15423800613651026,4.495678232118379,-93.97726682040859,-4.8624005,26.53534,13.977016,6.970049,1.4126105,-15.000033,-6.9252753,-21.239311,-5.4293675,14.253047,-8.802812,15.000033,3.0954974,-0.0073830704,-1.5937067,11.512858,73.384544,39.404533,65.321976,18.102734,-9.661462,-2.6004057,2.6408281,-83.66068,-18.470072,63.915173,-14.024546,-11.81936,4.1254725
121,-23.382877349853516,3.6828386783599854,74.557373046875,-0.20494737006511995,4.556380574819963,-94.16778681236943,-4.815248,26.74693,14.131924,6.879658,1.552356,-15.000033,-7.3809233,-21.034407,-5.1308722,14.810866,-9.180194,15.000033,2.989626,0.53658926,-1.6036336,11.998009,72.47011,39.28001,65.10845,18.700037,-9.662718,-2.9451418,1.6564716,-83.966354,-17.573677,63.72486,-14.009564,-11.7638035,3.879641
122,-23.50546646118164,3.717236280441284,74.538330078125,-0.2953684230483889,4.649526651968112,-94.3121993414154,-4.8409743,26.975721,14.222305,6.783063,1.7031435,-15.000033,-7.8944225,-20.813103,-4.896058,15.457817,-9.504857,15.000033,2.8365119,1.1177276,-1.6354928,12.417701,71.549446,39.111557,64.983185,19.170218,-9.624389,-3.1963327,0.6859786,-84.20195,-16.701956,63.4898,-13.852189,-11.67668,3.600345
123,-23.631486892700195,3.7543725967407227,74.52606201171875,-0.40864804120225134,4.734046042062789,-94.39361422421614,-4.897783,27.205381,14.238501,6.6802826,1.8660386,-15.000033,-8.336722,-20.587814,-4.7542195,16.054611,-9.775258,15.000033,2.6274507,1.7137625,-1.6548754,12.813006,70.64569,38.93279,64.90979,19.56447,-9.563384,-3.40069,-0.24495415,-84.37535,-15.885083,63.209545,-13.58258,-11.5951805,3.3402195
124,-23.757266998291016,3.7899978160858154,74.52276611328125,-0.5274205736777491,4.769204432540021,-94.39507889840273,-4.9572105,27.424313,14.165168,6.597176,2.027792,-15.000033,-8.584964,-20.371868,-4.7319736,16.475342,-9.997501,15.000033,2.3501155,2.2999227,-1.6261255,13.222342,69.78899,38.77743,64.856316,19.93192,-9.499781,-3.6084247,-1.1109849,-84.495094,-15.153575,62.88247,-13.229653,-11.556509,3.1537583
125,-23.864303588867188,3.8182220458984375,74.52820587158203,-0.6599720191358082,4.733935730848005,-94.29614592108544,-5.0328636,27.645756,13.962937,6.5844617,2.1645975,-15.000033,-8.564677,-20.1597,-4.867282,16.64872,-10.152531,15.000033,1.9826008,2.8825984,-1.5296849,13.625105,68.995735,38.62243,64.84917,20.25939,-9.435962,-3.8268707,-1.9138066,-84.555016,-14.526646,62.504955,-12.735049,-11.578843,3.081786
126,-23.968782424926758,3.8418021202087402,74.53642272949219,-0.8114129451127441,4.654019033254345,-94.11087117702648,-5.116755,27.866674,13.658548,6.5809994,2.3070607,-15.000033,-8.357105,-19.948025,-5.134044,16.657974,-10.247,15.000033,1.539092,3.463801,-1.3874213,13.987232,68.27237,38.438206,64.918594,20.526659,-9.363978,-4.0352917,-2.6337883,-84.55095,-14.011497,62.07643,-12.105597,-11.63864,3.0871856
127,-24.058656692504883,3.8574588298797607,74.54663848876953,-0.9598650572346139,4.558261982760599,-93.8732772155259,-5.213263,28.066708,13.305224,6.5754437,2.4540849,-15.000033,-8.066707,-19.755262,-5.464698,16.598114,-10.318967,15.000033,1.0591601,4.0145593,-1.2263435,14.32426,67.632904,38.248528,65.03878,20.772306,-9.290523,-4.243675,-3.2256303,-84.49456,-13.610576,61.603603,-11.467022,-11.7114,3.1102352
128,-24.142221450805664,3.8730978965759277,74.55813598632812,-1.0822742985549527,4.475296746406608,-93.61782512895626,-5.330043,28.225718,12.955268,6.5669117,2.603285,-15.000033,-7.7988863,-19.60095,-5.7916727,16.56659,-10.407531,15.000033,0.5810846,4.506338,-1.073836,14.657659,67.09105,38.086735,65.181725,21.03493,-9.223596,-4.464733,-3.6561394,-84.40307,-13.315516,61.09437,-10.943581,-11.774721,3.0930808
129,-24.217662811279297,3.887756109237671,74.5675048828125,-1.1680079258220055,4.402363589476917,-93.32984728844954,-5.4729548,28.33067,12.598925,6.55854,2.7565362,-15.000033,-7.550562,-19.500698,-6.1208615,16.57482,-10.521849,15.000033,0.09292766,4.9280224,-0.92979115,14.987234,66.65732,37.951214,65.35492,21.348782,-9.172929,-4.7214937,-3.9222329,-84.2806,-13.117196,60.55011,-10.526684,-11.8294325,3.0409207
130,-24.29289436340332,3.9047865867614746,74.57263946533203,-1.2308840386550268,4.32756691875854,-92.99908869786789,-5.633551,28.394587,12.217694,6.5475993,2.9159906,-15.000033,-7.275833,-19.44063,-6.480883,16.576307,-10.641892,15.000033,-0.4174696,5.295152,-0.78572196,15.291848,66.33423,37.81884,65.58232,21.683678,-9.133735,-5.003197,-4.0482006,-84.12322,-13.010844,59.97153,-10.16182,-11.886201,2.9795468
131,-24.367738723754883,3.9149622917175293,74.57331848144531,-1.2833190701027046,4.265090524219991,-92.66608306571705,-5.803411,28.438612,11.848279,6.533361,3.0712862,-15.000033,-7.0162697,-19.398602,-6.8363233,16.579828,-10.760312,15.000033,-0.9119332,5.62316,-0.657653,15.564831,66.11692,37.692337,65.85548,21.98018,-9.092065,-5.2714972,-4.051922,-83.93623,-12.985652,59.368645,-9.904646,-11.938809,2.8828354
132,-24.43153190612793,3.9211602210998535,74.57328033447266,-1.3381172633567622,4.22892370783249,-92.3713588218091,-5.975101,28.48427,11.525564,6.5153093,3.2104065,-15.000033,-6.8164463,-19.35403,-7.1504693,16.60039,-10.873273,15.000033,-1.3527367,5.9320397,-0.5607404,15.800899,65.99493,37.57732,66.164696,22.179712,-9.034027,-5.489196,-3.9635384,-83.73467,-13.019838,58.756542,-9.806675,-11.982213,2.7287621
133,-24.4813175201416,3.9301204681396484,74.56433868408203,-1.3974606656518802,4.225490681730506,-92.12152260211379,-6.1576095,28.536934,11.2577,6.5051637,3.3260598,-15.000033,-6.691002,-19.304836,-7.4165244,16.646086,-10.984135,15.000033,-1.7409371,6.224089,-0.49928194,16.037195,65.94881,37.49457,66.482506,22.265747,-8.946804,-5.640555,-3.7819533,-83.5115,-13.097927,58.119846,-9.950938,-12.010474,2.468815
134,-24.52149772644043,3.9326443672180176,74.56063842773438,-1.454498174265528,4.246008241909357,-91.89640780826184,-6.3541756,28.586657,11.024747,6.5061026,3.4217324,-15.000033,-6.616091,-19.261806,-7.6527247,16.709846,-11.094548,15.000033,-2.095561,6.496633,-0.46471158,16.275028,65.977066,37.44833,66.81464,22.270723,-8.840869,-5.748962,-3.5270255,-83.27657,-13.204025,57.466038,-10.281066,-12.027586,2.1349013
135,-24.55282974243164,3.9357755184173584,74.5532455444336,-1.5102214901813027,4.282545538911633,-91.6969853014675,-6.549796,28.633526,10.819864,6.506273,3.5011868,-15.000033,-6.5753922,-19.22281,-7.8611135,16.775574,-11.193483,15.000033,-2.410771,6.7539787,-0.4509422,16.49174,66.07148,37.44623,67.162964,22.21209,-8.727837,-5.821918,-3.242219,-83.03353,-13.33628,56.82637,-10.660715,-12.039093,1.803125
136,-24.577028274536133,3.940258502960205,74.54484558105469,-1.5669726296956206,4.327061518468127,-91.52399693582164,-6.7358546,28.679375,10.632566,6.5072746,3.5607543,-15.000033,-6.5535045,-19.183096,-8.044271,16.829865,-11.2716255,15.000033,-2.681097,7.001915,-0.45071834,16.663479,66.22292,37.49601,67.529106,22.10783,-8.61979,-5.86795,-2.9660037,-82.78867,-13.49907,56.23141,-10.952091,-12.053206,1.5514833
137,-24.591215133666992,3.9489800930023193,74.535400390625,-1.6301808886740314,4.387864219702204,-91.3784807747817,-6.923294,28.729496,10.455672,6.507883,3.5984435,-15.000033,-6.563138,-19.14003,-8.202713,16.88002,-11.327893,15.000033,-2.9051795,7.252432,-0.473585,16.783009,66.42695,37.629215,67.91813,21.95663,-8.518406,-5.8901544,-2.7144568,-82.54832,-13.697725,55.681187,-11.1291895,-12.075246,1.410047
138,-24.588665008544922,3.9560139179229736,74.52313995361328,-1.6968722993019385,4.465489497025079,-91.25968704922496,-7.1129293,28.781124,10.296005,6.5090895,3.6158388,-15.000033,-6.606416,-19.093603,-8.335832,16.928047,-11.366106,15.000033,-3.0880253,7.50262,-0.5177636,16.874674,66.67753,37.8439,68.31617,21.751776,-8.417167,-5.8833427,-2.4718335,-82.312485,-13.924649,55.163147,-11.25998,-12.101393,1.3365011
139,-24.577587127685547,3.9553587436676025,74.51325988769531,-1.757428464494936,4.5410547113953825,-91.16625005682991,-7.2786436,28.823748,10.165633,6.507729,3.6204035,-15.000033,-6.653498,-19.054605,-8.442127,16.959053,-11.387305,15.000033,-3.232909,7.73585,-0.55979705,16.958532,66.96392,38.093422,68.698524,21.50327,-8.3153515,-5.8421335,-2.2269883,-82.08032,-14.166598,54.688873,-11.349574,-12.127387,1.2992145
140,-24.561580657958984,3.9551422595977783,74.50672912597656,-1.8023917071711284,4.595737190453619,-91.09640682456846,-7.400725,28.848675,10.073539,6.511779,3.6143951,-15.000033,-6.674033,-19.032469,-8.521085,16.955248,-11.39034,15.000033,-3.3418405,7.93746,-0.57786393,17.048588,67.27518,38.32255,69.04327,21.219976,-8.211969,-5.7596574,-1.9693795,-81.85261,-14.408341,54.2725,-11.402744,-12.1491,1.2667618
141,-24.536354064941406,3.953294038772583,74.50242614746094,-1.8258710909955203,4.61926502387393,-91.0579011462691,-7.4520655,28.848658,10.035496,6.5079255,3.602709,-15.000033,-6.6561685,-19.030367,-8.56222,16.90571,-11.3722515,15.000033,-3.408107,8.10457,-0.5620045,17.154556,67.60807,38.519985,69.34223,20.869034,-8.094858,-5.623741,-1.6994953,-81.6357,-14.64375,53.919853,-11.380773,-12.169218,1.2445462
142,-24.502849578857422,3.951418399810791,74.49774169921875,-1.8344332515765105,4.623472368511883,-91.04863330929541,-7.457942,28.831165,10.038783,6.509905,3.576376,-15.000033,-6.617547,-19.04376,-8.569591,16.821737,-11.333705,15.000033,-3.4325984,8.249154,-0.5270754,17.2625,67.96317,38.707466,69.61064,20.45721,-7.9700747,-5.4378357,-1.43082,-81.433685,-14.872168,53.62857,-11.292538,-12.189333,1.2462239
143,-24.462356567382812,3.9489314556121826,74.49468994140625,-1.8365242195729088,4.622873735948921,-91.05256123970013,-7.443614,28.804806,10.06536,6.5068398,3.5463514,-15.000033,-6.572301,-19.064636,-8.563986,16.718328,-11.28091,15.000033,-3.4285946,8.376462,-0.48894063,17.354635,68.33556,38.882267,69.85204,20.053297,-7.8582263,-5.2216573,-1.1737533,-81.24307,-15.086472,53.39936,-11.216113,-12.203458,1.2518008
144,-24.417320251464844,3.94545841217041,74.49481964111328,-1.8403006935372728,4.631992141747901,-91.0536230249395,-7.443836,28.778946,10.092813,6.5051513,3.5146916,-15.000033,-6.535903,-19.08644,-8.565554,16.613617,-11.221433,15.000033,-3.4098372,8.490374,-0.46282202,17.415056,68.71927,39.04258,70.06985,19.725681,-7.780008,-4.9936957,-0.9373849,-81.05895,-15.280256,53.230995,-11.231148,-12.204911,1.2395355
145,-24.372711181640625,3.9488821029663086,74.49699401855469,-1.8489837598441552,4.655939355530711,-91.0508997185791,-7.46366,28.757294,10.124631,6.501286,3.4821775,-15.000033,-6.516599,-19.10691,-8.577682,16.514788,-11.156793,15.000033,-3.3777757,8.593255,-0.45210215,17.451677,69.111305,39.1952,70.25797,19.505657,-7.744729,-4.734106,-0.7297764,-80.87888,-15.449062,53.13201,-11.369892,-12.189021,1.1996474
146,-24.323068618774414,3.949277877807617,74.49983215332031,-1.8576985517595785,4.686528924939422,-91.05174817619701,-7.4883246,28.734713,10.168509,6.497036,3.4464102,-15.000033,-6.5044446,-19.131044,-8.590184,16.411053,-11.083097,15.000033,-3.3281975,8.68199,-0.44809294,17.478458,69.51063,39.347786,70.41051,19.352854,-7.739257,-4.4412827,-0.55031955,-80.70385,-15.592174,53.10035,-11.586984,-12.159663,1.1436706
147,-24.27032470703125,3.9469945430755615,74.50379943847656,-1.8634127637009081,4.718559414881095,-91.05308639047173,-7.512943,28.706648,10.212941,6.492422,3.409321,-15.000033,-6.488592,-19.158909,-8.603283,16.29469,-10.999462,15.000033,-3.2654366,8.754119,-0.4470381,17.487556,69.914116,39.498577,70.53104,19.229027,-7.7500086,-4.1616178,-0.39416167,-80.53424,-15.711342,53.118946,-11.846413,-12.123894,1.082784
148,-24.218177795410156,3.9410884380340576,74.50787353515625,-1.8639485735947032,4.746799641219619,-91.05178985345901,-7.5353804,28.6704,10.244847,6.489863,3.373021,-15.000033,-6.4560537,-19.1919,-8.617836,16.154362,-10.903285,15.000033,-3.1930714,8.809087,-0.44570348,17.467634,70.317535,39.641632,70.62375,19.09536,-7.763195,-3.9408815,-0.25318176,-80.36878,-15.81047,53.170403,-12.11113,-12.088813,1.0284435
149,-24.165307998657227,3.936455011367798,74.51410675048828,-1.8568514404687484,4.771268056690102,-91.04807136221353,-7.554017,28.62239,10.2591095,6.486606,3.3400333,-15.000033,-6.4094124,-19.232243,-8.630812,15.99351,-10.795342,15.000033,-3.109683,8.844869,-0.44390535,17.415401,70.71992,39.78509,70.67885,18.943222,-7.7725697,-3.8030624,-0.1255391,-80.20758,-15.896081,53.255066,-12.399654,-12.05181,0.9806461
150,-24.110721588134766,3.932898759841919,74.52143859863281,-1.8437572402412026,4.794345171233888,-91.04328210395988,-7.57237,28.565235,10.262287,6.4864073,3.306504,-15.000033,-6.3525515,-19.277994,-8.643348,15.813128,-10.674832,15.000033,-3.0141914,8.862852,-0.44206485,17.340513,71.12046,39.931812,70.69385,18.79259,-7.7856297,-3.719629,-0.010395718,-80.050545,-15.969999,53.378117,-12.722136,-12.010566,0.9348201
151,-24.05013656616211,3.932739019393921,74.53084564208984,-1.8285453922259123,4.814144126666689,-91.0358160370595,-7.586004,28.50338,10.263969,6.482866,3.2747037,-15.000033,-6.2786474,-19.325216,-8.660728,15.608739,-10.542759,15.000033,-2.9106379,8.866456,-0.43774876,17.248161,71.5155,40.068336,70.68379,18.649801,-7.809215,-3.6572168,0.09985165,-79.898056,-16.030663,53.52924,-13.030521,-11.972461,0.89430976
152,-23.994354248046875,3.9320642948150635,74.54377746582031,-1.814971695446469,4.828972237963248,-91.02428679934424,-7.591561,28.44097,10.273436,6.4718323,3.2457545,-15.000033,-6.182339,-19.369383,-8.687878,15.377448,-10.399463,15.000033,-2.8022199,8.861123,-0.4292052,17.140974,71.90009,40.176422,70.664696,18.519766,-7.850175,-3.5817351,0.21114022,-79.74968,-16.074833,53.69969,-13.276283,-11.94508,0.86281663
153,-23.938383102416992,3.9309773445129395,74.55855560302734,-1.8032095586310664,4.833393007931386,-91.00817656370046,-7.594275,28.378887,10.29011,6.4760885,3.2053115,-15.000033,-6.0475554,-19.41101,-8.727202,15.100037,-10.240139,15.000033,-2.6891704,8.846213,-0.41156968,17.015882,72.27165,40.25335,70.63264,18.416452,-7.916532,-3.4765167,0.32343492,-79.607254,-16.102232,53.89629,-13.433558,-11.9344635,0.8383243
154,-23.88088035583496,3.9257354736328125,74.57129669189453,-1.7911666732609173,4.829869622022602,-90.9883825592483,-7.581243,28.313004,10.316587,6.4664707,3.170033,-15.000033,-5.886623,-19.450752,-8.774204,14.793492,-10.069161,15.000033,-2.5694814,8.821293,-0.38759947,16.872776,72.629654,40.306503,70.57725,18.33261,-7.999956,-3.3621001,0.4338584,-79.47208,-16.113766,54.121384,-13.531864,-11.935369,0.8201982
155,-23.823524475097656,3.9198012351989746,74.5838851928711,-1.7802150429437873,4.82893874009728,-90.96503145623637,-7.580381,28.248444,10.336745,6.4700704,3.1293762,-15.000033,-5.7145343,-19.487453,-8.831068,14.464655,-9.886464,15.000033,-2.4444196,8.789496,-0.36553675,16.718536,72.973755,40.335785,70.51334,18.242994,-8.090472,-3.2576144,0.5442771,-79.34475,-16.109331,54.35823,-13.607541,-11.938621,0.8135226
156,-23.768442153930664,3.9102678298950195,74.59648132324219,-1.7698740343612966,4.84069224545327,-90.93842588211746,-7.5932317,28.185167,10.348281,6.466885,3.0971591,-15.000033,-5.540751,-19.519718,-8.900356,14.109576,-9.690987,15.000033,-2.3147476,8.751434,-0.35396484,16.558441,73.30448,40.339718,70.45497,18.122322,-8.176973,-3.1824536,0.6575904,-79.226395,-16.089731,54.589664,-13.697336,-11.934916,0.82306033
157,-23.716049194335938,3.9005916118621826,74.60791778564453,-1.758799804081654,4.871345850486444,-90.90821078523324,-7.627642,28.122282,10.349281,6.4577384,3.0751495,-15.000033,-5.3766356,-19.54957,-8.982269,13.737315,-9.483014,15.000033,-2.1792579,8.706244,-0.35807693,16.391865,73.62143,40.311783,70.401184,17.940056,-8.260562,-3.1409738,0.77685636,-79.11714,-16.055399,54.814075,-13.79619,-11.922419,0.8557819
158,-23.666946411132812,3.898707866668701,74.61809539794922,-1.747913771803848,4.914270579379931,-90.87431590364965,-7.685794,28.060946,10.338665,6.4608183,3.0515327,-15.000033,-5.2108965,-19.57604,-9.076611,13.339959,-9.260722,15.000033,-2.037614,8.654285,-0.37257132,16.214142,73.92455,40.252308,70.3467,17.717546,-8.345647,-3.1232424,0.9013464,-79.01706,-16.006739,55.039867,-13.889117,-11.9058895,0.90748066
159,-23.621746063232422,3.8894495964050293,74.6308364868164,-1.7384864695778177,4.9606009220016105,-90.8375691004409,-7.7465677,28.001835,10.322755,6.458038,3.032971,-15.000033,-5.0355825,-19.597746,-9.179823,12.921357,-9.029032,15.000033,-1.8919296,8.597112,-0.39032197,16.025137,74.21504,40.170414,70.29994,17.506128,-8.426497,-3.1272345,1.0259544,-78.92648,-15.943621,55.26499,-13.998249,-11.886493,0.9664129
160,-23.575159072875977,3.8762097358703613,74.644287109375,-1.7332811008887563,5.00137541170821,-90.79868416443111,-7.7978363,27.948002,10.303181,6.4474716,3.0171494,-15.000033,-4.8429403,-19.611649,-9.288898,12.486224,-8.793596,15.000033,-1.7448429,8.538009,-0.40422213,15.827286,74.49407,40.076897,70.26883,17.356552,-8.4974165,-3.1512635,1.1443053,-78.84479,-15.864017,55.4884,-14.145009,-11.865567,1.0210139
161,-23.531309127807617,3.8617324829101562,74.65843200683594,-1.7329507975646878,5.032020051342489,-90.7575133959532,-7.8477325,27.902388,10.272736,6.4539413,2.9905386,-15.000033,-4.6263585,-19.616684,-9.403982,12.0318365,-8.552922,15.000033,-1.5982572,8.475934,-0.40949252,15.619925,74.762276,39.9775,70.2546,17.293741,-8.558729,-3.1985824,1.259724,-78.77258,-15.765355,55.704563,-14.351096,-11.840261,1.0715584
162,-23.489011764526367,3.851022481918335,74.66783142089844,-1.7359722663274753,5.058035288785238,-90.71389482597777,-7.8859396,27.860659,10.239757,6.446298,2.9712417,-15.000033,-4.3938465,-19.614529,-9.525331,11.561719,-8.307814,15.000033,-1.4514561,8.409589,-0.410682,15.40596,75.01876,39.869263,70.25251,17.286608,-8.613022,-3.2693484,1.3708184,-78.70924,-15.645988,55.916378,-14.599165,-11.81113,1.1231782
163,-23.451900482177734,3.838433027267456,74.67854309082031,-1.7418683158187374,5.085988932150417,-90.66816223645947,-7.9356275,27.824547,10.197239,6.4522443,2.9448671,-15.000033,-4.1492734,-19.604422,-9.654685,11.067044,-8.053123,15.000033,-1.3030301,8.340901,-0.4142264,15.193651,75.26279,39.751926,70.261345,17.303366,-8.658084,-3.3568513,1.4636843,-78.65256,-15.506478,56.135384,-14.854442,-11.784054,1.1707995
164,-23.419321060180664,3.8255109786987305,74.68930053710938,-1.748342919962734,5.1220858693454385,-90.62063993033995,-7.9927883,27.789959,10.152619,6.4515386,2.9225357,-15.000033,-3.8980505,-19.589743,-9.791981,10.542778,-7.7879725,15.000033,-1.1520317,8.269489,-0.4264504,14.9929695,75.493805,39.627712,70.27893,17.31305,-8.691535,-3.4545329,1.5254978,-78.5996,-15.348201,56.371796,-15.082066,-11.764539,1.2089301
165,-23.388948440551758,3.808525562286377,74.6991958618164,-1.7576680712354764,5.169756217333165,-90.56948857278276,-8.067539,27.760328,10.099065,6.45231,2.898909,-15.000033,-3.640742,-19.565813,-9.940086,9.985329,-7.510304,15.000033,-1.0012275,8.195614,-0.45143926,14.810184,75.711624,39.498074,70.301865,17.303297,-8.710002,-3.5755591,1.5540724,-78.54829,-15.1732,56.62673,-15.294572,-11.757075,1.2316489
166,-23.358150482177734,3.794506549835205,74.70625305175781,-1.769710123062139,5.225079380677855,-90.51523594984083,-8.152927,27.73516,10.038568,6.45208,2.8753366,-15.000033,-3.372832,-19.533064,-10.098224,9.393311,-7.219459,15.000033,-0.8504228,8.118642,-0.48468652,14.641415,75.91587,39.36496,70.33102,17.292572,-8.715593,-3.7185183,1.5570699,-78.497574,-14.981661,56.89445,-15.503844,-11.757423,1.242969
167,-23.328319549560547,3.7831571102142334,74.71720123291016,-1.7793675329612677,5.2836825584218365,-90.46185762208896,-8.2417,27.708525,9.979632,6.4519153,2.8535843,-15.000033,-3.1000826,-19.49952,-10.259844,8.78253,-6.9192333,15.000033,-0.69455713,8.035513,-0.51907104,14.485498,76.10704,39.23387,70.36949,17.294195,-8.714203,-3.8552856,1.5393376,-78.448364,-14.773868,57.171673,-15.674406,-11.757562,1.2509286
168,-23.302534103393555,3.770979881286621,74.72785949707031,-1.7816368176147248,5.341212844394465,-90.41332294060538,-8.32362,27.674753,9.932201,6.44841,2.8377302,-15.000033,-2.8292072,-19.472229,-10.41845,8.170674,-6.614357,15.000033,-0.52868354,7.944785,-0.5473696,14.340193,76.28498,39.109173,70.421104,17.321499,-8.711806,-3.9580026,1.5024511,-78.40119,-14.547749,57.457386,-15.770619,-11.749784,1.2643508
169,-23.280447006225586,3.758859157562256,74.73918914794922,-1.7751801580037452,5.3968591569671975,-90.36949216797355,-8.400257,27.632095,9.896573,6.447721,2.8266058,-15.000033,-2.5568116,-19.453306,-10.577786,7.5547786,-6.303075,15.000033,-0.35484865,7.844647,-0.56798625,14.214534,76.44938,38.99166,70.48685,17.385117,-8.709064,-4.0204387,1.4413046,-78.35559,-14.299448,57.755066,-15.750758,-11.735156,1.2850645
170,-23.253936767578125,3.746108293533325,74.74952697753906,-1.762613021148424,5.452862752554146,-90.32864623073557,-8.474362,27.583656,9.86907,6.4469433,2.820135,-15.000033,-2.3363116,-19.44915,-10.720784,7.040791,-6.043571,15.000033,-0.17526805,7.736386,-0.5844597,14.109489,76.59994,38.88216,70.56413,17.475748,-8.703121,-4.0571923,1.3537844,-78.31174,-14.028027,58.065155,-15.644768,-11.7166815,1.308383
171,-23.22748565673828,3.729538917541504,74.7566909790039,-1.7466220969763409,5.509597671011491,-90.29244439003875,-8.545685,27.532873,9.848676,6.4435396,2.8160567,-15.000033,-2.343676,-19.484236,-10.782345,6.981344,-6.0218563,15.000033,0.014993388,7.6249037,-0.5973053,14.010905,76.73613,38.784847,70.65066,17.576254,-8.694815,-4.071494,1.2476974,-78.27053,-13.736495,58.38082,-15.522987,-11.689515,1.3335966
172,-23.207176208496094,3.72074294090271,74.76349639892578,-1.7301263766821326,5.567963896237432,-90.2623816119843,-8.616823,27.483173,9.832623,6.4404745,2.8086698,-15.000033,-2.3600297,-19.520412,-10.82974,6.9243374,-5.9966083,15.000033,0.22196876,7.516725,-0.6056484,13.907637,76.85272,38.70851,70.73939,17.67042,-8.684568,-4.0660763,1.1419661,-78.234795,-13.440576,58.690495,-15.455711,-11.649017,1.3612014
173,-23.185884475708008,3.7144689559936523,74.77017211914062,-1.7139163834128162,5.62372135392472,-90.24058380844417,-8.6809025,27.436333,9.822764,6.4367065,2.7953088,-15.000033,-2.3828928,-19.55487,-10.857524,6.870237,-5.968311,15.000033,0.44757503,7.4095674,-0.6095809,13.781797,76.95898,38.647564,70.84178,17.763844,-8.667939,-4.033889,1.027798,-78.20424,-13.122622,58.99743,-15.467466,-11.585499,1.3904518
174,-23.159412384033203,3.7084507942199707,74.77698516845703,-1.6961199247816985,5.6781156286409376,-90.22558113152465,-8.740523,27.389793,9.81887,6.434079,2.7777944,-15.000033,-2.411943,-19.589893,-10.8706875,6.8194146,-5.9376955,15.000033,0.6902905,7.303256,-0.60770416,13.64635,77.048546,38.6031,70.9518,17.862093,-8.645558,-3.9754562,0.914256,-78.180626,-12.797862,59.300156,-15.518534,-11.504688,1.423513
175,-23.132709503173828,3.7045400142669678,74.78312683105469,-1.676970343190305,5.739071204864021,-90.21356893492539,-8.807882,27.34239,9.817403,6.43135,2.7618392,-15.000033,-2.4534066,-19.626537,-10.878105,6.770892,-5.903382,15.000033,0.94482994,7.2008724,-0.60496724,13.52108,77.11993,38.573647,71.0641,17.9467,-8.628473,-3.908208,0.789093,-78.15986,-12.464972,59.604122,-15.582408,-11.424342,1.4585929
176,-23.1085205078125,3.7041425704956055,74.78874969482422,-1.6563657266295944,5.814520010546533,-90.2007878168826,-8.890154,27.291603,9.817456,6.4186406,2.75742,-15.000033,-2.5117486,-19.666286,-10.889357,6.719181,-5.8606505,15.000033,1.2168196,7.110394,-0.59617,13.429634,77.15303,38.570225,71.150024,18.00051,-8.625959,-3.8484733,0.73832005,-78.14328,-12.227767,59.875175,-15.632786,-11.36277,1.5010852
177,-23.081144332885742,3.704798936843872,74.7964096069336,-1.635210442998906,5.908729603926039,-90.18831170311392,-9.007185,27.2406,9.811984,6.4237313,2.749988,-15.000033,-2.5994365,-19.707602,-10.902527,6.6792297,-5.8168116,15.000033,1.4911999,7.0215726,-0.59903306,13.372181,77.17683,38.58283,71.24091,17.999138,-8.6484585,-3.8086216,0.62455106,-78.12014,-11.946872,60.17013,-15.683848,-11.330429,1.5450723
178,-23.057804107666016,3.7109036445617676,74.80133819580078,-1.6127879906981069,6.016708204151719,-90.17758736206507,-9.135618,27.187078,9.810514,6.4178953,2.7523563,-15.000033,-2.702602,-19.750261,-10.916444,6.633128,-5.765168,15.000033,1.773985,6.934269,-0.60610735,13.3407135,77.18707,38.615723,71.33208,17.958315,-8.688302,-3.7780716,0.48855776,-78.09437,-11.658429,60.47132,-15.742601,-11.31588,1.5925133
179,-23.032413482666016,3.7188456058502197,74.80712127685547,-1.5872417315489278,6.131998683471278,-90.16476164149869,-9.276574,27.129004,9.807589,6.412803,2.7595906,-15.000033,-2.8174071,-19.79657,-10.931724,6.5893145,-5.708786,15.000033,2.0459757,6.844053,-0.6180519,13.370377,77.183464,38.685375,71.42297,17.918125,-8.731828,-3.7396781,0.21866812,-78.05409,-11.2361965,60.812046,-15.780198,-11.299283,1.6178621
180,-23.007863998413086,3.728741407394409,74.81166076660156,-1.5562629056548176,6.248707139491006,-90.1463527801328,-9.421874,27.062315,9.802503,6.403055,2.7752728,-15.000033,-2.930832,-19.850615,-10.951211,6.539458,-5.647941,15.000033,2.3246863,6.75861,-0.6176353,13.428152,77.15759,38.76347,71.50474,17.918144,-8.766785,-3.6802444,-0.038647763,-78.00757,-10.823482,61.134125,-15.760806,-11.265118,1.6224451
181,-22.989990234375,3.7452597618103027,74.81477355957031,-1.523149489728442,6.3640613201155904,-90.120897018906,-9.571096,26.991707,9.794158,6.3923235,2.79899,-15.000033,-3.0536277,-19.911871,-10.972586,6.5144567,-5.600709,15.000033,2.6056163,6.680147,-0.60776365,13.517714,77.103676,38.845547,71.57107,17.963673,-8.788704,-3.5768385,-0.30895922,-77.94661,-10.3875265,61.444897,-15.671325,-11.200154,1.5839982
182,-22.965917587280273,3.7570767402648926,74.81951904296875,-1.4887430688893328,6.481877806703418,-90.09046886825485,-9.736301,26.91885,9.779003,6.3954153,2.822095,-15.000033,-3.1956139,-19.97729,-10.992696,6.5217175,-5.569589,15.000033,2.9143531,6.6129575,-0.5833104,13.563044,77.04771,38.878334,71.65042,18.032701,-8.810196,-3.453724,-0.4384144,-77.89119,-10.092414,61.6973,-15.52206,-11.121364,1.5363002
183,-22.93460464477539,3.7743945121765137,74.82420349121094,-1.45212887034163,6.603042234109271,-90.05453579869057,-9.905722,26.840403,9.758626,6.389176,2.853991,-15.000033,-3.3354764,-20.047373,-11.018237,6.5184665,-5.5300756,15.000033,3.2102845,6.5475817,-0.5592783,13.691656,76.94564,38.954346,71.70121,18.133799,-8.817538,-3.3143284,-0.7092562,-77.797295,-9.651547,61.98765,-15.359796,-11.033857,1.4548078
184,-22.900156021118164,3.794966220855713,74.83189392089844,-1.414963859874002,6.727963402156484,-90.01165989952946,-10.0869465,26.758713,9.722818,6.3834333,2.8874695,-15.000033,-3.4777539,-20.119019,-11.048505,6.5146446,-5.486848,15.000033,3.5069628,6.4928308,-0.51473737,13.874031,76.83028,39.07392,71.75241,18.2661,-8.823973,-3.2169263,-0.97636324,-77.69818,-9.224817,62.26413,-15.188476,-10.963476,1.3994715
185,-22.869787216186523,3.8211588859558105,74.83834075927734,-1.376619705413212,6.8564551651918615,-89.96598931695975,-10.276144,26.673256,9.672123,6.3769,2.9203784,-15.000033,-3.6253772,-20.193188,-11.077114,6.510919,-5.438341,15.000033,3.8092551,6.44932,-0.4517822,14.09727,76.704994,39.217125,71.8165,18.428284,-8.83919,-3.1826642,-1.25104,-77.59117,-8.824241,62.53517,-15.005727,-10.91338,1.3772773
186,-22.83700942993164,3.847245454788208,74.84532928466797,-1.3363465586688292,6.988572943517564,-89.9166913318511,-10.474188,26.583317,9.609288,6.3706975,2.9539845,-15.000033,-3.7773545,-20.27227,-11.105385,6.5076103,-5.3859615,15.000033,4.117686,6.413996,-0.37406322,14.352812,76.569084,39.374474,71.88945,18.619577,-8.858606,-3.1876037,-1.5293977,-77.4722,-8.441524,62.798866,-14.804084,-10.8740015,1.3714782
187,-22.80645179748535,3.873610019683838,74.84931182861328,-1.2963127263088263,7.1239678178749175,-89.85531479962367,-10.683962,26.49045,9.533718,6.359463,2.9961774,-15.000033,-3.9253445,-20.35057,-11.147761,6.496281,-5.327901,15.000033,4.4290833,6.3858247,-0.28064454,14.628314,76.42426,39.544968,71.96186,18.842861,-8.862044,-3.1946392,-1.7758048,-77.34029,-8.06404,63.039356,-14.600939,-10.842654,1.3722674
188,-22.780994415283203,3.9016668796539307,74.85417175292969,-1.2587968637077416,7.262927154212708,-89.77348861204437,-10.920419,26.398153,9.439115,6.3598084,3.0425506,-15.000033,-4.0749145,-20.427929,-11.21312,6.498968,-5.2797513,15.000033,4.740052,6.3639073,-0.1704695,14.9124,76.272896,39.72872,72.024414,19.100464,-8.829143,-3.1674933,-1.9565977,-77.19596,-7.677816,63.240925,-14.414236,-10.816602,1.3703103
189,-22.75589942932129,3.929701089859009,74.85853576660156,-1.2230140134217533,7.40703147307195,-89.67127548380465,-11.175149,26.305048,9.336349,6.354577,3.102834,-15.000033,-4.217338,-20.50228,-11.307669,6.4933686,-5.229739,15.000033,5.0500836,6.345224,-0.046018247,15.201869,76.116714,39.92259,72.075516,19.43059,-8.739239,-3.0906954,-2.0594103,-77.03803,-7.2723618,63.398743,-14.217538,-10.798478,1.3571981
190,-22.73318099975586,3.9641273021698,74.86331176757812,-1.1886972400074134,7.555573600569016,-89.55250380282426,-11.44817,26.211117,9.222638,6.348749,3.1721735,-15.000033,-4.357442,-20.575388,-11.423681,6.4867873,-5.1802793,15.000033,5.360129,6.3314457,0.0918248,15.499179,75.95677,40.123505,72.12373,19.819088,-8.607989,-2.986492,-2.1108596,-76.865814,-6.8488674,63.525005,-14.012139,-10.788479,1.3390661
191,-22.71249771118164,4.012269973754883,74.86360931396484,-1.1565348405649123,7.705128960809262,-89.41399199859536,-11.738319,26.115164,9.08502,6.3424544,3.2509186,-15.000033,-4.489026,-20.64817,-11.560992,6.4791174,-5.130973,15.000033,5.668768,6.326298,0.24618308,15.803925,75.79471,40.333397,72.17386,20.189926,-8.46978,-2.8744812,-2.1325605,-76.6828,-6.412569,63.629,-13.854732,-10.780958,1.3288584
192,-22.68916893005371,4.053920745849609,74.86660766601562,-1.12642093131738,7.852031175082752,-89.25256699587926,-12.044154,26.014805,8.910954,6.337539,3.3372207,-15.000033,-4.608073,-20.719616,-11.718863,6.471753,-5.081317,15.000033,5.9748983,6.3341246,0.42046297,16.112198,75.631165,40.552277,72.23194,20.468288,-8.359518,-2.773833,-2.1465535,-76.49196,-5.9698467,63.721016,-13.802249,-10.770492,1.340911
193,-22.669816970825195,4.101580619812012,74.87330627441406,-1.0995894633644379,7.996635948174813,-89.06322271144606,-12.36999,25.910145,8.6891,6.332781,3.434749,-15.000033,-4.7108088,-20.79062,-11.901299,6.4627433,-5.0313396,15.000033,6.2762184,6.3571486,0.6139622,16.416344,75.466576,40.77899,72.30223,20.629345,-8.285498,-2.6835537,-2.1460228,-76.293976,-5.5215974,63.802986,-13.894753,-10.755853,1.3903638
194,-22.646907806396484,4.14994478225708,74.87495422363281,-1.074919987104204,8.140334265431092,-88.84905890773874,-12.713882,25.80103,8.429588,6.3275785,3.542274,-15.000033,-4.8002133,-20.859629,-12.107722,6.4526663,-4.9822054,15.000033,6.574389,6.3921885,0.82525903,16.718145,75.30144,41.01177,72.38169,20.714993,-8.229792,-2.5950725,-2.1211245,-76.089516,-5.06654,63.869278,-14.093317,-10.740222,1.466275
195,-22.629255294799805,4.204551696777344,74.88037109375,-1.0518922030144795,8.281043498916052,-88.6195459011772,-13.069035,25.689219,8.149132,6.326059,3.6541245,-15.000033,-4.882651,-20.92866,-12.328751,6.445918,-4.9322653,15.000033,6.8747363,6.441483,1.0555775,17.026735,75.13482,41.24737,72.46602,20.749372,-8.188516,-2.5156894,-2.088583,-75.87942,-4.606997,63.91894,-14.33498,-10.725094,1.5448804
196,-22.614253997802734,4.259408473968506,74.88379669189453,-1.0302469466558926,8.416815299086156,-88.38412040384536,-13.423811,25.575754,7.8668056,6.321749,3.7704444,-15.000033,-4.95838,-20.998537,-12.557323,6.4367433,-4.8753915,15.000033,7.18248,6.5067677,1.3066034,17.353035,74.96495,41.484795,72.54887,20.757458,-8.157494,-2.4525998,-2.063829,-75.66635,-4.1453605,63.949615,-14.555168,-10.711492,1.6020529
197,-22.594667434692383,4.322012901306152,74.88729095458984,-1.0074612268889513,8.545054485466673,-88.14140820044284,-13.776536,25.45756,7.5833454,6.317999,3.8890898,-15.000033,-5.0253086,-21.06989,-12.7945385,6.427756,-4.8124757,15.000033,7.498218,6.588481,1.5793581,17.694742,74.79037,41.724792,72.62743,20.716412,-8.140839,-2.4145331,-2.0388606,-75.4514,-3.6800375,63.95939,-14.765815,-10.701402,1.633935
198,-22.576730728149414,4.388874530792236,74.89151763916016,-0.9844705923329987,8.66752194727511,-87.88768535999802,-14.130994,25.334688,7.2909064,6.31329,4.0123315,-15.000033,-5.0821295,-21.142944,-13.043819,6.417749,-4.7445946,15.000033,7.819195,6.687304,1.8722864,18.04934,74.61018,41.968513,72.70257,20.622692,-8.137886,-2.3955095,-2.0095863,-75.23479,-3.20989,63.94989,-14.990641,-10.693634,1.6528655
199,-22.558774948120117,4.45802116394043,74.8968505859375,-0.9660228727691327,8.788631865057193,-87.62877728014116,-14.491914,25.213911,6.992224,6.3093944,4.1385937,-15.000033,-5.138309,-21.212706,-13.299603,6.4082413,-4.672756,15.000033,8.14492,6.805838,2.1841395,18.424896,74.42285,42.215576,72.779175,20.531204,-8.141236,-2.3789465,-2.0021198,-75.01662,-2.7374258,63.92632,-15.185303,-10.68451,1.6602488
200,-22.546586990356445,4.5326433181762695,74.9030990600586,-0.9554611176736483,8.913083599613646,-87.37038392634702,-14.861605,25.100298,6.69105,6.305315,4.2671595,-15.000033,-5.2028575,-21.271845,-13.55717,6.398587,-4.596684,15.000033,8.475089,6.945237,2.5134704,18.831562,74.22624,42.46691,72.856384,20.496958,-8.139602,-2.3495414,-2.0427692,-74.79693,-2.2649722,63.894646,-15.3058195,-10.670338,1.6571311
201,-22.532363891601562,4.6139044761657715,74.90569305419922,-0.9578356842116217,9.040618987069724,-87.11308257046447,-15.239843,24.999573,6.386597,6.298819,4.396656,-15.000033,-5.2740035,-21.316399,-13.818671,6.3865404,-4.515967,15.000033,8.807917,7.110617,2.8598614,19.275791,74.01801,42.725677,72.92929,20.554712,-8.129874,-2.2905543,-2.1403503,-74.573166,-1.7923664,63.85349,-15.324847,-10.642456,1.649757
202,-22.51224136352539,4.699613571166992,74.90875244140625,-0.9690418273013516,9.169308799921042,-86.85415739355913,-15.626865,24.906473,6.077034,6.2941837,4.5261226,-15.000033,-5.349839,-21.350157,-14.085054,6.3756466,-4.4325733,15.000033,9.142729,7.299089,3.2245438,19.755993,73.797066,42.99639,72.99544,20.668882,-8.117069,-2.2144647,-2.2829032,-74.34513,-1.3174105,63.80137,-15.271852,-10.605268,1.6350478
203,-22.49243927001953,4.788313865661621,74.91023254394531,-0.9826824079897389,9.301155061399571,-86.59456734641891,-16.022755,24.813414,5.7652326,6.2920575,4.6594515,-15.000033,-5.4347067,-21.383032,-14.349902,6.3689895,-4.3465385,15.000033,9.481104,7.5060973,3.607693,20.267445,73.56238,43.276684,73.06074,20.7874,-8.103987,-2.1492884,-2.4640872,-74.11544,-0.8387193,63.74316,-15.184906,-10.574717,1.6017667
204,-22.47648048400879,4.881023406982422,74.9126968383789,-0.9909834452914421,9.43760685151045,-86.3354178058329,-16.424036,24.711344,5.4561005,6.286979,4.804048,-15.000033,-5.527591,-21.422823,-14.6087885,6.360059,-4.254064,15.000033,9.825348,7.72719,4.0091853,20.801077,73.31249,43.558636,73.13297,20.857695,-8.093579,-2.122675,-2.6783535,-73.88695,-0.3548202,63.68464,-15.102229,-10.56735,1.5396922
205,-22.46216583251953,4.976903915405273,74.9179458618164,-0.991849208015163,9.575199988894996,-86.07608268189664,-16.827566,24.597988,5.1502895,6.280513,4.9619555,-15.000033,-5.624991,-21.470228,-14.860598,6.3498898,-4.1556993,15.000033,10.174244,7.96282,4.433804,21.364271,73.04674,43.841625,73.20724,20.856833,-8.087801,-2.1490169,-2.9204106,-73.663284,0.13774751,63.62,-15.0418005,-10.59338,1.4369316
206,-22.439796447753906,5.078085899353027,74.92900848388672,-0.990227827267625,9.714143858215941,-85.8164003366915,-17.228804,24.478477,4.8485236,6.2620206,5.1358843,-15.000033,-5.721156,-21.521133,-15.110315,6.327353,-4.045417,15.000033,10.526774,8.218232,4.8789124,21.955767,72.76405,44.12547,73.28174,20.815834,-8.084255,-2.2110054,-3.1961899,-73.44436,0.63932484,63.54983,-14.979193,-10.642739,1.30355
207,-22.416671752929688,5.182644844055176,74.935302734375,-0.9858623118344888,9.862410927845582,-85.55774078096914,-17.654045,24.353226,4.5427127,6.265542,5.3035164,-15.000033,-5.8454757,-21.579115,-15.35011,6.330834,-3.9440181,15.000033,10.885997,8.490641,5.3340645,22.553951,72.46417,44.40324,73.369705,20.763401,-8.080944,-2.28775,-3.516294,-73.22889,1.1444137,63.48953,-14.8916,-10.700566,1.1609452
208,-22.396240234375,5.289827346801758,74.9392318725586,-0.9797786170554089,10.027318905008672,-85.30135007500303,-18.092346,24.2219,4.2407794,6.2569523,5.4795303,-15.000033,-5.987108,-21.638285,-15.588661,6.320695,-3.8294837,15.000033,11.256537,8.779126,5.7878966,23.134634,72.14781,44.664375,73.48207,20.727003,-8.072899,-2.3591163,-3.8863363,-73.01426,1.643758,63.453423,-14.755515,-10.752011,1.0304011
209,-22.376684188842773,5.398737907409668,74.9411392211914,-0.9721322144861421,10.21123209970418,-85.04806378183372,-18.551682,24.085646,3.9391932,6.2470555,5.6569915,-15.000033,-6.153794,-21.699139,-15.823039,6.3072066,-3.707108,15.000033,11.643745,9.081496,6.233808,23.687164,71.81757,44.907684,73.63124,20.733316,-8.065406,-2.4027917,-4.2980847,-72.79864,2.1294394,63.432045,-14.572689,-10.7848015,0.92864215
210,-22.350177764892578,5.517094135284424,74.94416046142578,-0.9627112832114467,10.409776612331271,-84.79692348742455,-19.027618,23.943777,3.6384702,6.236655,5.837271,-15.000033,-6.3415008,-21.761812,-16.053131,6.2933445,-3.5788598,15.000033,12.045667,9.399041,6.6784644,24.22075,71.47546,45.132954,73.809845,20.760454,-8.058399,-2.4351327,-4.742601,-72.582344,2.5999131,63.41892,-14.352634,-10.809559,0.84006864
211,-22.320417404174805,5.638172149658203,74.94487762451172,-0.9500728107198608,10.620835067605535,-84.54696882867525,-19.519272,23.794374,3.3408766,6.2260156,6.021673,-15.000033,-6.5499134,-21.83184,-16.278955,6.2809367,-3.4456513,15.000033,12.456362,9.733772,7.1299715,24.735893,71.121666,45.328514,74.003555,20.76657,-8.041374,-2.4930007,-5.229364,-72.3662,3.056136,63.435425,-14.086987,-10.8459,0.7383346
212,-22.2836856842041,5.763423442840576,74.94376373291016,-0.9326472721025167,10.84223971360146,-84.29719310575305,-20.022362,23.634418,3.050522,6.210896,6.214028,-15.000033,-6.7735343,-21.912233,-16.50236,6.263238,-3.3047874,15.000033,12.869915,10.08791,7.596162,25.232948,70.7561,45.48105,74.19838,20.709332,-8.003471,-2.612614,-5.766726,-72.15242,3.5018358,63.502712,-13.764248,-10.913708,0.59733194
213,-22.253070831298828,5.898715496063232,74.94268798828125,-0.9124530613209089,11.076800807310441,-84.04565901807376,-20.546347,23.465118,2.765329,6.198859,6.4110093,-15.000033,-7.020138,-22.003656,-16.724201,6.2512093,-3.1632257,15.000033,13.2852545,10.466257,8.071345,25.70339,70.38039,45.590904,74.41518,20.556347,-7.935866,-2.8062682,-6.361797,-71.94186,3.93711,63.623127,-13.394828,-11.016073,0.40397498
214,-22.214462280273438,6.034643650054932,74.94170379638672,-0.8893260895241817,11.324399731626668,-83.79330473465062,-21.08586,23.286158,2.4862092,6.184365,6.6138554,-15.000033,-7.286821,-22.102812,-16.944328,6.2388935,-3.0170248,15.000033,13.70574,10.867709,8.5524435,26.145834,69.99576,45.65833,74.65605,20.33699,-7.845475,-3.0529866,-7.008055,-71.73335,4.361328,63.78721,-12.978924,-11.144065,0.17542656
215,-22.16215705871582,6.176424026489258,74.94001770019531,-0.8598782846036392,11.578087784681347,-83.54365397734067,-21.630758,23.095823,2.2140343,6.168189,6.822152,-15.000033,-7.5671005,-22.212614,-17.157574,6.225781,-2.864499,15.000033,14.132006,11.286617,9.050799,26.570837,69.60115,45.67033,74.87877,20.1035,-7.7442765,-3.338012,-7.6975956,-71.52833,4.778452,63.99947,-12.493925,-11.299597,-0.06913871
216,-22.115907669067383,6.326670169830322,74.93997192382812,-0.8199011197332433,11.83145385051346,-83.29992277215477,-22.171387,22.892094,1.9497068,6.151468,7.035614,-15.000033,-7.855561,-22.336468,-17.358566,6.211727,-2.7037308,15.000033,14.564785,11.718701,9.57753,26.987661,69.19389,45.61052,75.04065,19.90592,-7.6447964,-3.6461937,-8.425496,-71.328735,5.1946845,64.269646,-11.916216,-11.487436,-0.31005597
217,-22.064559936523438,6.481871128082275,74.94107818603516,-0.7689712948042766,12.081795860294582,-83.06165174976177,-22.706482,22.675312,1.6861563,6.132564,7.259409,-15.000033,-8.150348,-22.473951,-17.54725,6.1970634,-2.5312996,15.000033,15.005247,12.167643,10.137066,27.392523,68.77081,45.461803,75.136154,19.759201,-7.5374303,-4.0012894,-9.19976,-71.13284,5.604205,64.6199,-11.184902,-11.740138,-0.54594755
218,-22.01032257080078,6.641794681549072,74.93895721435547,-0.7094167639894886,12.333073996777145,-82.82714239216926,-23.241894,22.446833,1.4246699,6.1133957,7.4910917,-15.000033,-8.45513,-22.624207,-17.725811,6.183288,-2.3499231,15.000033,15.453223,12.637623,10.721586,27.781137,68.33236,45.233376,75.181915,19.635729,-7.4164963,-4.40106,-10.018097,-70.94006,6.0036397,65.038574,-10.331437,-12.04592,-0.7831966
219,-21.950977325439453,6.806500434875488,74.93439483642578,-0.6410452691863874,12.588002040152524,-82.59818481532753,-23.772326,22.206667,1.1810002,6.08742,7.7258606,-15.000033,-8.767958,-22.786894,-17.894575,6.1608458,-2.1610007,15.000033,15.904593,13.122247,11.324992,28.167871,67.88264,44.955708,75.18046,19.523426,-7.3104715,-4.7891607,-10.862416,-70.75732,6.410304,65.48039,-9.465039,-12.340842,-1.0152123
220,-21.89341163635254,6.96745491027832,74.92949676513672,-0.5656564760430669,12.84925875008,-82.37678143532744,-24.305605,21.957413,0.96483356,6.0723076,7.94558,-15.000033,-9.102828,-22.963737,-18.04788,6.154131,-1.9844701,15.000033,16.353416,13.618115,11.940109,28.56665,67.425385,44.658245,75.135445,19.40997,-7.247212,-5.110551,-11.723885,-70.59234,6.8486896,65.90169,-8.695444,-12.55736,-1.2358402
221,-21.828250885009766,7.130277156829834,74.91914367675781,-0.4809835213364371,13.11106363607925,-82.1583369262248,-24.828487,21.696314,0.7839298,6.051663,8.156086,-15.000033,-9.439271,-23.156052,-18.192564,6.140978,-1.8153696,15.000033,16.791122,14.126399,12.576631,28.997505,66.959526,44.33124,75.02965,19.322134,-7.241045,-5.353437,-12.616771,-70.44774,7.3347154,66.307274,-8.010021,-12.669906,-1.444717
222,-21.75382423400879,7.298482894897461,74.90715026855469,-0.3871507481436064,13.374143832643126,-81.94349705430857,-25.346762,21.425007,0.62938285,6.030375,8.359726,-15.000033,-9.78374,-23.366365,-18.32631,6.1288166,-1.6515175,15.000033,17.22021,14.650433,13.233409,29.450487,66.48311,43.965347,74.86893,19.25583,-7.2753286,-5.5461483,-13.556057,-70.32052,7.865937,66.7214,-7.362232,-12.716309,-1.6449202
223,-21.67426109313965,7.466782569885254,74.89286804199219,-0.2889834399559005,13.649774690278429,-81.74215725702847,-25.86966,21.15199,0.4967366,6.0098495,8.559735,-15.000033,-10.152048,-23.58388,-18.44217,6.1159043,-1.4827055,15.000033,17.65162,15.18748,13.889852,29.897034,65.99856,43.594913,74.689384,19.152685,-7.3314085,-5.6953754,-14.527506,-70.20906,8.438464,67.128136,-6.805996,-12.725845,-1.8385402
224,-21.59012794494629,7.636910438537598,74.8736801147461,-0.19271044022220604,13.949098020130856,-81.56436454820833,-26.398947,20.886822,0.3836053,5.975366,8.768664,-15.000033,-10.553516,-23.797617,-18.536621,6.087337,-1.2908449,15.000033,18.096468,15.7346735,14.525424,30.310175,65.50884,43.25957,74.526886,18.955664,-7.390897,-5.809888,-15.516574,-70.110916,9.045166,67.51056,-6.3978305,-12.727082,-2.0267906
225,-21.50640296936035,7.804442405700684,74.85365295410156,-0.09831843177097518,14.278566142557365,-81.41354787651228,-26.957003,20.631275,0.2832522,5.9597387,8.971389,-15.000033,-11.015606,-24.011766,-18.598747,6.0803423,-1.0923659,15.000033,18.56236,16.285471,15.135051,30.692154,65.01264,42.952858,74.37028,18.606863,-7.4570994,-5.8708324,-16.51145,-70.02612,9.688356,67.86364,-6.20853,-12.7082405,-2.2173789
226,-21.407894134521484,7.972912311553955,74.83631134033203,-0.004381631531358573,14.63067013315061,-81.2836209616334,-27.522242,20.38289,0.20310639,5.932431,9.181713,-15.000033,-11.5091715,-24.224022,-18.640858,6.058632,-0.8735983,15.000033,19.041842,16.844555,15.729649,31.055601,64.508316,42.662727,74.20671,18.151703,-7.5374985,-5.881914,-17.522346,-69.95319,10.366795,68.19551,-6.1900945,-12.658893,-2.4076023
227,-21.314071655273438,8.14102554321289,74.81623077392578,0.09089530924385872,14.996830519641879,-81.17070339993028,-28.10273,20.137817,0.13728198,5.922898,9.37943,-15.000033,-12.042518,-24.443205,-18.65589,6.0603776,-0.6589089,15.000033,19.52147,17.416311,16.315731,31.396486,63.999374,42.42546,74.06513,17.68519,-7.6199155,-5.887437,-18.563385,-69.88631,11.066775,68.50516,-6.2191343,-12.609917,-2.5834956
228,-21.21548843383789,8.301429748535156,74.7942123413086,0.18738544240507182,15.368419238503568,-81.07085044606244,-28.674704,19.893728,0.09110518,5.902853,9.574287,-15.000033,-12.583999,-24.662941,-18.65551,6.0476727,-0.43301123,15.000033,19.988726,18.005196,16.900278,31.713287,63.490158,42.2825,73.97369,17.302845,-7.6926036,-5.933125,-19.640345,-69.81459,11.768028,68.79025,-6.17287,-12.594209,-2.7329397
229,-21.112876892089844,8.468791007995605,74.76749420166016,0.2851453733296431,15.745735455631602,-80.99206189642317,-29.240297,19.649845,0.07367889,5.8851933,9.756185,-15.000033,-13.149105,-24.888027,-18.625278,6.036304,-0.20120746,15.000033,20.448563,18.604727,17.486399,32.00746,62.981068,42.238564,73.92077,17.065367,-7.760569,-6.0427003,-20.746439,-69.731285,12.461376,69.03759,-6.036942,-12.621117,-2.8594527
230,-20.997148513793945,8.634230613708496,74.7403793334961,0.3798628272697247,16.132114814102373,-80.93453368072477,-29.805346,19.411606,0.079633474,5.871357,9.927744,-15.000033,-13.739537,-25.111315,-18.568335,6.025995,0.036710605,15.000033,20.905886,19.215166,18.0702,32.28284,62.47085,42.280666,73.895256,16.910095,-7.8280835,-6.1899476,-21.874971,-69.635185,13.151325,69.251305,-5.8740873,-12.673363,-2.970219
231,-20.8868408203125,8.801962852478027,74.71015930175781,0.47193707386966377,16.52513708220151,-80.87977110923649,-30.380213,19.17566,0.08530597,5.8681965,10.089943,-15.000033,-14.339123,-25.332111,-18.506487,6.0158243,0.27550614,15.000033,21.34218,19.839672,18.650702,32.5431,61.96287,42.428276,73.924835,16.749355,-7.8817477,-6.3459325,-23.032883,-69.52489,13.839721,69.44468,-5.676809,-12.738282,-3.0585043
232,-20.770259857177734,8.969768524169922,74.68364715576172,0.6140312494120351,16.932267375747852,-80.79999791165403,-30.918196,18.884436,0.11648292,5.7701836,10.301708,-15.000033,-14.953483,-25.610167,-18.442776,6.0112395,0.5125535,15.000033,21.773096,20.432018,19.223196,32.68257,61.555424,42.615776,74.12093,16.492008,-7.915247,-6.4919534,-24.083681,-69.41907,14.392011,69.579895,-5.4397135,-12.800953,-3.112865
233,-20.65867042541504,9.126121520996094,74.65725708007812,0.7188561078066302,17.334420753392553,-80.70638766327205,-31.505106,18.626904,0.08871684,5.7460546,10.478645,-15.000033,-15.540348,-25.848639,-18.411077,6.001588,0.74468553,15.000033,22.146137,21.08025,19.789307,32.82276,61.126244,42.96758,74.41279,16.11342,-7.912781,-6.6116323,-25.243673,-69.28897,15.008932,69.73442,-5.144007,-12.863925,-3.1355224
234,-20.54422950744629,9.2824068069458,74.62625885009766,0.8141197464857535,17.738021138932726,-80.60440257806339,-32.10736,18.374903,0.0405423,5.738715,10.64698,-15.000033,-16.1193,-26.077663,-18.391209,5.9904037,0.9747948,15.000033,22.541407,21.760271,20.329115,32.791553,60.819942,43.331142,74.90705,15.659372,-7.89381,-6.733894,-26.257915,-69.17942,15.457419,69.80927,-4.7978535,-12.930612,-3.1198778
235,-20.430265426635742,9.445993423461914,74.5874252319336,0.9311908271790222,18.155261460848116,-80.49064206644857,-32.70629,18.098621,0.0016994032,5.7042584,10.827736,-15.000033,-16.711664,-26.330381,-18.371042,5.980224,1.2031792,15.000033,22.850113,22.414412,20.887877,32.897316,60.41909,43.89517,75.34915,15.160688,-7.8477855,-6.8325386,-27.491175,-69.013695,16.07756,69.955925,-4.4380107,-12.998827,-3.0935075
236,-20.31804847717285,9.599782943725586,74.54474639892578,1.0419631838179697,18.582866603111103,-80.38045597330456,-33.323578,17.8338,-0.042034898,5.6911044,10.994588,-15.000033,-17.312748,-26.575518,-18.351624,5.970391,1.424738,15.000033,23.228706,23.091457,21.39951,32.86414,60.14512,44.34668,75.89592,14.632414,-7.7920527,-6.905125,-28.51758,-68.88595,16.485584,70.03357,-4.1103506,-13.059841,-3.048871
237,-20.207523345947266,9.754916191101074,74.49798583984375,1.1674158160635952,19.03342635547281,-80.27179944107971,-33.95209,17.559805,-0.07257773,5.6684704,11.16212,-15.000033,-17.94096,-26.832666,-18.324406,5.9567633,1.6442114,15.000033,23.591282,23.747252,21.89842,32.889416,59.86096,44.843193,76.42511,14.067252,-7.7064676,-6.944206,-29.606546,-68.7363,16.907116,70.137245,-3.7967317,-13.11798,-2.9840214
238,-20.090360641479492,9.894118309020996,74.4538345336914,1.3063572241001191,19.50273512467723,-80.16010482119454,-34.592407,17.274145,-0.095243014,5.6416936,11.328426,-15.000033,-18.595509,-27.1055,-18.28988,5.9533014,1.8547488,15.000033,23.934193,24.38887,22.387613,32.94701,59.569103,45.3948,76.960754,13.45562,-7.5929008,-6.95207,-30.744368,-68.56534,17.331976,70.25759,-3.4870925,-13.174181,-2.9004486
239,-19.973363876342773,10.027670860290527,74.40393829345703,1.4132831521752411,19.972973837983215,-80.04710313317604,-35.265884,17.019205,-0.1498116,5.6672516,11.468733,-15.000033,-19.229053,-27.338713,-18.280031,5.932463,2.0651736,15.000033,24.277454,25.06381,22.85576,33.020596,59.274162,46.00698,77.48612,12.842648,-7.4850903,-6.929564,-31.866041,-68.37951,17.75247,70.375854,-3.219679,-13.220381,-2.8298519
240,-19.863452911376953,10.164146423339844,74.35696411132812,1.5670803837492437,20.42694836797081,-79.91448461671901,-35.870205,16.716696,-0.16587906,5.6134167,11.647975,-15.000033,-19.847393,-27.622082,-18.263552,5.9187636,2.2690253,15.000033,24.559586,25.684818,23.371548,33.271675,58.903465,46.839382,77.84773,12.265964,-7.4010706,-6.911348,-33.112663,-68.14057,18.317102,70.57716,-3.0339506,-13.262476,-2.791939
